;START_OF_HEADER
;HEADER_VERSION:0.1
;FLAVOR:Griffin
;GENERATOR.NAME:Cura_SteamEngine
;GENERATOR.VERSION:4.4.1
;GENERATOR.BUILD_DATE:2019-12-23
;TARGET_MACHINE.NAME:Ultimaker 3
;EXTRUDER_TRAIN.0.INITIAL_TEMPERATURE:210
;EXTRUDER_TRAIN.0.MATERIAL.VOLUME_USED:18389
;EXTRUDER_TRAIN.0.MATERIAL.GUID:506c9f0d-e3aa-4bd4-b2d2-23e2425b1aa9
;EXTRUDER_TRAIN.0.NOZZLE.DIAMETER:0.4
;EXTRUDER_TRAIN.0.NOZZLE.NAME:AA 0.4
;BUILD_PLATE.TYPE:glass
;BUILD_PLATE.INITIAL_TEMPERATURE:60
;PRINT.TIME:6764
;PRINT.GROUPS:1
;PRINT.SIZE.MIN.X:9
;PRINT.SIZE.MIN.Y:6
;PRINT.SIZE.MIN.Z:0.27
;PRINT.SIZE.MAX.X:135.921
;PRINT.SIZE.MAX.Y:147.917
;PRINT.SIZE.MAX.Z:39.87
;END_OF_HEADER
;Generated with Cura_SteamEngine 4.4.1
T0
M82 ;absolute extrusion mode

G92 E0
M109 S210
G0 F15000 X9 Y6 Z2
G280
G1 F1500 E-6.5
;LAYER_COUNT:199
;LAYER:0
M107
M204 S625
M205 X6 Y6
G1 F600 Z2.27
G0 F4285.7 X70.381 Y103.667 Z2.27
M204 S500
M205 X5 Y5
;TYPE:SKIRT
G1 F600 Z0.27
G1 F1500 E0
G1 F1200 X71.028 Y103.3 E0.01322
G1 X71.71 Y103.003 E0.02645
G1 X72.421 Y102.782 E0.03968
G1 X73.151 Y102.638 E0.05291
G1 X74.123 Y102.57 E0.07023
G1 X97.764 Y102.57 E0.49047
G1 X97.927 Y102.145 E0.49856
G1 X100.024 Y97.393 E0.59089
G1 X100.361 Y96.729 E0.60413
G1 X100.766 Y96.105 E0.61735
G1 X101.237 Y95.529 E0.63058
G1 X101.711 Y95.055 E0.64249
G1 X105.564 Y91.564 E0.73492
G1 X106.142 Y91.095 E0.74815
G1 X106.766 Y90.69 E0.76137
G1 X107.431 Y90.355 E0.77461
G1 X108.056 Y90.116 E0.7865
G1 X112.994 Y88.495 E0.87889
G1 X113.712 Y88.301 E0.89211
G1 X114.447 Y88.185 E0.90534
G1 X115.191 Y88.149 E0.91858
G1 X115.857 Y88.185 E0.93043
G1 X121.03 Y88.712 E1.02286
G1 X121.766 Y88.827 E1.03611
G1 X122.484 Y89.02 E1.04932
G1 X123.178 Y89.289 E1.06255
G1 X123.778 Y89.596 E1.07453
G1 X128.284 Y92.183 E1.16689
G1 X128.909 Y92.588 E1.18013
G1 X129.487 Y93.057 E1.19336
G1 X130.011 Y93.586 E1.2066
G1 X130.431 Y94.107 E1.2185
G1 X133.497 Y98.307 E1.31093
G1 X133.903 Y98.931 E1.32417
G1 X134.24 Y99.595 E1.3374
G1 X134.503 Y100.291 E1.35063
G1 X134.676 Y100.938 E1.36253
G1 X135.767 Y106.018 E1.45489
G1 X135.883 Y106.753 E1.46812
G1 X135.921 Y107.496 E1.48135
G1 X135.878 Y108.239 E1.49458
G1 X135.773 Y108.897 E1.50642
G1 X134.705 Y113.984 E1.59882
G1 X134.513 Y114.703 E1.61205
G1 X134.245 Y115.398 E1.62529
G1 X133.905 Y116.059 E1.6385
G1 X133.536 Y116.624 E1.6505
G1 X130.486 Y120.836 E1.74294
G1 X130.018 Y121.415 E1.75617
G1 X129.49 Y121.94 E1.76941
G1 X128.909 Y122.405 E1.78264
G1 X128.359 Y122.762 E1.79429
G1 X124.254 Y125.151 E1.87872
G1 X124.584 Y125.629 E1.88904
G1 X125.062 Y126.415 E1.9054
G1 X125.455 Y127.161 E1.92039
G1 X125.824 Y127.977 E1.93631
G1 X126.127 Y128.773 E1.95145
G1 X126.393 Y129.628 E1.96736
G1 X126.59 Y130.424 E1.98194
G1 X126.757 Y131.325 E1.99823
G1 X126.86 Y132.164 E2.01325
G1 X126.915 Y133.062 E2.02925
G1 X126.917 Y133.878 E2.04375
G1 X126.866 Y134.779 E2.05979
G1 X126.765 Y135.627 E2.07497
G1 X126.603 Y136.518 E2.09107
G1 X126.411 Y137.309 E2.10554
G1 X126.144 Y138.18 E2.12174
G1 X125.84 Y138.988 E2.13708
G1 X125.474 Y139.803 E2.15296
G1 X125.09 Y140.536 E2.16767
G1 X124.613 Y141.329 E2.18412
G1 X124.13 Y142.031 E2.19927
G1 X123.573 Y142.742 E2.21532
G1 X123.026 Y143.361 E2.23001
G1 X122.388 Y144.001 E2.24607
G1 X121.748 Y144.568 E2.26127
G1 X121.038 Y145.123 E2.27729
G1 X120.376 Y145.581 E2.2916
G1 X119.59 Y146.06 E2.30796
G1 X118.835 Y146.459 E2.32314
G1 X118.024 Y146.825 E2.33896
G1 X117.227 Y147.127 E2.35411
G1 X116.357 Y147.397 E2.3703
G1 X115.567 Y147.592 E2.38477
G1 X114.672 Y147.758 E2.40095
G1 X113.83 Y147.861 E2.41603
G1 X112.928 Y147.916 E2.43209
G1 X112.091 Y147.917 E2.44697
G1 X111.19 Y147.863 E2.46301
G1 X110.357 Y147.762 E2.47793
G1 X109.461 Y147.598 E2.49412
G1 X108.669 Y147.404 E2.50862
G1 X107.799 Y147.136 E2.5248
G1 X106.998 Y146.834 E2.54001
G1 X106.186 Y146.469 E2.55584
G1 X105.429 Y146.071 E2.57104
G1 X104.642 Y145.593 E2.58741
G1 X103.977 Y145.134 E2.60177
G1 X103.267 Y144.58 E2.61778
G1 X102.637 Y144.024 E2.63272
G1 X101.997 Y143.386 E2.64878
G1 X101.429 Y142.744 E2.66402
G1 X100.876 Y142.036 E2.67999
G1 X100.419 Y141.375 E2.69427
G1 X99.939 Y140.587 E2.71068
G1 X99.54 Y139.833 E2.72584
G1 X99.174 Y139.022 E2.74166
G1 X98.872 Y138.222 E2.75686
G1 X98.603 Y137.354 E2.77301
G1 X98.408 Y136.567 E2.78742
G1 X98.383 Y136.43 E2.7899
G1 X74.123 Y136.43 E3.22114
G1 X73.38 Y136.39 E3.23437
G1 X72.645 Y136.271 E3.24761
G1 X71.927 Y136.073 E3.26085
G1 X71.235 Y135.8 E3.27407
G1 X70.576 Y135.454 E3.2873
G1 X69.958 Y135.039 E3.30053
G1 X69.223 Y134.4 E3.31785
G1 X69.1 Y134.277 E3.32094
G1 X68.602 Y133.723 E3.33418
G1 X68.167 Y133.119 E3.34741
G1 X67.8 Y132.472 E3.36063
G1 X67.503 Y131.79 E3.37386
G1 X67.282 Y131.079 E3.38709
G1 X67.138 Y130.349 E3.40032
G1 X67.07 Y129.377 E3.41764
G1 X67.07 Y109.623 E3.76878
G1 X67.11 Y108.88 E3.78201
G1 X67.229 Y108.145 E3.79525
G1 X67.427 Y107.427 E3.80849
G1 X67.7 Y106.735 E3.82171
G1 X68.046 Y106.076 E3.83494
G1 X68.461 Y105.458 E3.84817
G1 X69.1 Y104.723 E3.86549
G1 X69.223 Y104.6 E3.86858
G1 X69.777 Y104.102 E3.88182
G1 X70.381 Y103.667 E3.89505
M204 S625
M205 X6 Y6
G0 F4285.7 X70.645 Y103.997
M204 S500
M205 X5 Y5
G1 F1200 X71.275 Y103.646 E3.90787
G1 X71.94 Y103.367 E3.92069
G1 X72.632 Y103.163 E3.93351
G1 X73.342 Y103.037 E3.94633
G1 X74.123 Y102.99 E3.96024
G1 X98.064 Y102.99 E4.38582
G1 X98.106 Y102.841 E4.38857
G1 X98.311 Y102.315 E4.3986
G1 X100.408 Y97.563 E4.49093
G1 X100.735 Y96.92 E4.50376
G1 X101.132 Y96.317 E4.51659
G1 X101.593 Y95.762 E4.52942
G1 X101.993 Y95.367 E4.53941
G1 X105.846 Y91.876 E4.63183
G1 X106.407 Y91.422 E4.64466
G1 X107.014 Y91.032 E4.65748
G1 X107.661 Y90.713 E4.67031
G1 X108.187 Y90.515 E4.6803
G1 X113.125 Y88.894 E4.77268
G1 X113.821 Y88.707 E4.7855
G1 X114.535 Y88.599 E4.79833
G1 X115.255 Y88.57 E4.81114
G1 X115.815 Y88.603 E4.82111
G1 X120.988 Y89.13 E4.91354
G1 X121.7 Y89.242 E4.92636
G1 X122.396 Y89.433 E4.93919
G1 X123.066 Y89.7 E4.95201
G1 X123.569 Y89.96 E4.96207
G1 X128.075 Y92.547 E5.05443
G1 X128.68 Y92.941 E5.06727
G1 X129.238 Y93.398 E5.08009
G1 X129.741 Y93.915 E5.09291
G1 X130.092 Y94.355 E5.10291
G1 X133.158 Y98.555 E5.19535
G1 X133.55 Y99.16 E5.20816
G1 X133.873 Y99.805 E5.22099
G1 X134.123 Y100.482 E5.23382
G1 X134.265 Y101.026 E5.24381
G1 X135.356 Y106.106 E5.33617
G1 X135.468 Y106.819 E5.349
G1 X135.501 Y107.539 E5.36181
G1 X135.453 Y108.259 E5.37464
G1 X135.362 Y108.811 E5.38459
G1 X134.294 Y113.898 E5.47698
G1 X134.107 Y114.594 E5.48979
G1 X133.844 Y115.266 E5.50262
G1 X133.508 Y115.905 E5.51545
G1 X133.196 Y116.378 E5.52553
G1 X130.146 Y120.59 E5.61797
G1 X129.691 Y121.15 E5.63079
G1 X129.177 Y121.656 E5.64362
G1 X128.61 Y122.102 E5.65644
G1 X128.147 Y122.399 E5.66622
G1 X123.729 Y124.97 E5.75708
G1 X123.634 Y125.019 E5.75898
G1 X123.792 Y125.221 E5.76354
G1 X124.225 Y125.847 E5.77707
G1 X124.703 Y126.633 E5.79342
G1 X125.073 Y127.334 E5.80751
G1 X125.442 Y128.15 E5.82343
G1 X125.726 Y128.898 E5.83766
G1 X125.992 Y129.753 E5.85357
G1 X126.177 Y130.501 E5.86727
G1 X126.344 Y131.402 E5.88356
G1 X126.441 Y132.19 E5.89767
G1 X126.496 Y133.088 E5.91366
G1 X126.498 Y133.854 E5.92728
G1 X126.447 Y134.755 E5.94332
G1 X126.352 Y135.552 E5.95759
G1 X126.19 Y136.443 E5.97369
G1 X126.009 Y137.186 E5.98728
G1 X125.742 Y138.057 E6.00348
G1 X125.457 Y138.816 E6.01789
G1 X125.091 Y139.631 E6.03377
G1 X124.731 Y140.32 E6.04759
G1 X124.254 Y141.113 E6.06404
G1 X123.8 Y141.772 E6.07826
G1 X123.243 Y142.483 E6.09432
G1 X122.728 Y143.064 E6.10812
G1 X122.09 Y143.704 E6.12418
G1 X121.489 Y144.237 E6.13846
G1 X120.779 Y144.792 E6.15448
G1 X120.158 Y145.222 E6.16791
G1 X119.372 Y145.701 E6.18427
G1 X118.662 Y146.076 E6.19854
G1 X117.851 Y146.442 E6.21436
G1 X117.103 Y146.725 E6.22858
G1 X116.233 Y146.995 E6.24477
G1 X115.49 Y147.179 E6.25838
G1 X114.595 Y147.345 E6.27456
G1 X113.804 Y147.442 E6.28872
G1 X112.902 Y147.497 E6.30479
G1 X112.117 Y147.497 E6.31874
G1 X111.216 Y147.443 E6.33479
G1 X110.433 Y147.349 E6.3488
G1 X109.537 Y147.185 E6.365
G1 X108.792 Y147.003 E6.37863
G1 X107.922 Y146.735 E6.39481
G1 X107.17 Y146.451 E6.4091
G1 X106.358 Y146.086 E6.42493
G1 X105.648 Y145.712 E6.43919
G1 X104.861 Y145.234 E6.45556
G1 X104.235 Y144.802 E6.46908
G1 X103.525 Y144.248 E6.48509
G1 X102.934 Y143.726 E6.4991
G1 X102.294 Y143.088 E6.51517
G1 X101.76 Y142.485 E6.52949
G1 X101.207 Y141.777 E6.54545
G1 X100.777 Y141.157 E6.55887
G1 X100.297 Y140.369 E6.57527
G1 X99.923 Y139.66 E6.58952
G1 X99.557 Y138.849 E6.60533
G1 X99.273 Y138.098 E6.61961
G1 X99.004 Y137.23 E6.63576
G1 X98.821 Y136.49 E6.64931
G1 X98.732 Y136.01 E6.65799
G1 X74.123 Y136.01 E7.09544
G1 X73.403 Y135.97 E7.10826
G1 X72.691 Y135.851 E7.12109
G1 X71.997 Y135.653 E7.13392
G1 X71.33 Y135.38 E7.14673
G1 X70.696 Y135.035 E7.15956
G1 X70.105 Y134.622 E7.17238
G1 X69.52 Y134.103 E7.18628
G1 X69.397 Y133.98 E7.18937
G1 X68.916 Y133.443 E7.20218
G1 X68.497 Y132.855 E7.21502
G1 X68.146 Y132.225 E7.22784
G1 X67.867 Y131.56 E7.24066
G1 X67.663 Y130.868 E7.25348
G1 X67.537 Y130.158 E7.2663
G1 X67.49 Y129.377 E7.28021
G1 X67.49 Y109.623 E7.63135
G1 X67.53 Y108.903 E7.64417
G1 X67.649 Y108.191 E7.65701
G1 X67.847 Y107.497 E7.66983
G1 X68.12 Y106.83 E7.68265
G1 X68.465 Y106.196 E7.69548
G1 X68.878 Y105.605 E7.70829
G1 X69.397 Y105.02 E7.72219
G1 X69.52 Y104.897 E7.72529
G1 X70.057 Y104.416 E7.7381
G1 X70.645 Y103.997 E7.75094
M204 S625
M205 X6 Y6
G0 F4285.7 X70.908 Y104.328
M204 S500
M205 X5 Y5
G1 F1200 X71.521 Y103.994 E7.76334
G1 X72.168 Y103.732 E7.77575
G1 X72.84 Y103.547 E7.78814
G1 X73.529 Y103.439 E7.80054
G1 X74.123 Y103.41 E7.81111
G1 X98.381 Y103.41 E8.24232
G1 X98.526 Y102.912 E8.25154
G1 X98.695 Y102.484 E8.25972
G1 X100.792 Y97.732 E8.35205
G1 X101.11 Y97.111 E8.36445
G1 X101.497 Y96.53 E8.37686
G1 X101.948 Y95.998 E8.38926
G1 X102.275 Y95.678 E8.39739
G1 X106.128 Y92.187 E8.48982
G1 X106.671 Y91.749 E8.50222
G1 X107.261 Y91.376 E8.51463
G1 X107.889 Y91.073 E8.52702
G1 X108.318 Y90.914 E8.53515
G1 X113.256 Y89.293 E8.62754
G1 X113.93 Y89.114 E8.63994
G1 X114.62 Y89.013 E8.65233
G1 X115.318 Y88.991 E8.66475
G1 X115.772 Y89.02 E8.67283
G1 X120.945 Y89.547 E8.76526
G1 X121.634 Y89.658 E8.77767
G1 X122.306 Y89.846 E8.79007
G1 X122.952 Y90.11 E8.80248
G1 X123.36 Y90.325 E8.81068
G1 X127.866 Y92.912 E8.90304
G1 X128.45 Y93.293 E8.91543
G1 X128.987 Y93.739 E8.92784
G1 X129.469 Y94.243 E8.94024
G1 X129.753 Y94.602 E8.94837
G1 X132.819 Y98.802 E9.04081
G1 X133.197 Y99.388 E9.05321
G1 X133.506 Y100.014 E9.06562
G1 X133.741 Y100.671 E9.07802
G1 X133.854 Y101.114 E9.08615
G1 X134.945 Y106.194 E9.17851
G1 X135.052 Y106.884 E9.19092
G1 X135.08 Y107.581 E9.20332
G1 X135.028 Y108.277 E9.21573
G1 X134.951 Y108.724 E9.22379
G1 X133.883 Y113.811 E9.31619
G1 X133.701 Y114.485 E9.3286
G1 X133.443 Y115.133 E9.34099
G1 X133.112 Y115.747 E9.35339
G1 X132.856 Y116.132 E9.36161
G1 X129.806 Y120.344 E9.45405
G1 X129.365 Y120.885 E9.46646
G1 X128.865 Y121.371 E9.47886
G1 X128.313 Y121.798 E9.49126
G1 X127.936 Y122.036 E9.49919
G1 X123.518 Y124.607 E9.59005
G1 X122.989 Y124.875 E9.60059
G1 X123.461 Y125.479 E9.61422
G1 X123.866 Y126.066 E9.62689
G1 X124.344 Y126.852 E9.64325
G1 X124.69 Y127.507 E9.65642
G1 X125.059 Y128.323 E9.67233
G1 X125.325 Y129.023 E9.68565
G1 X125.591 Y129.878 E9.70156
G1 X125.764 Y130.577 E9.71436
G1 X125.931 Y131.478 E9.73065
G1 X126.022 Y132.216 E9.74387
G1 X126.077 Y133.114 E9.75986
G1 X126.078 Y133.83 E9.77259
G1 X126.027 Y134.731 E9.78863
G1 X125.939 Y135.476 E9.80197
G1 X125.777 Y136.367 E9.81807
G1 X125.608 Y137.063 E9.8308
G1 X125.341 Y137.934 E9.84699
G1 X125.074 Y138.644 E9.86048
G1 X124.708 Y139.459 E9.87636
G1 X124.371 Y140.103 E9.88928
G1 X123.894 Y140.896 E9.90573
G1 X123.469 Y141.513 E9.91904
G1 X122.912 Y142.224 E9.9351
G1 X122.431 Y142.768 E9.94801
G1 X121.793 Y143.408 E9.96407
G1 X121.231 Y143.906 E9.97742
G1 X120.521 Y144.461 E9.99344
G1 X119.939 Y144.863 E10.00601
G1 X119.153 Y145.342 E10.02237
G1 X118.489 Y145.693 E10.03573
G1 X117.678 Y146.059 E10.05154
G1 X116.978 Y146.324 E10.06485
G1 X116.108 Y146.594 E10.08104
G1 X115.414 Y146.766 E10.09375
G1 X114.519 Y146.932 E10.10993
G1 X113.779 Y147.023 E10.12318
G1 X112.877 Y147.078 E10.13925
G1 X112.142 Y147.078 E10.15231
G1 X111.241 Y147.024 E10.16836
G1 X110.509 Y146.935 E10.18147
G1 X109.613 Y146.771 E10.19766
G1 X108.916 Y146.601 E10.21041
G1 X108.046 Y146.333 E10.22659
G1 X107.342 Y146.068 E10.23996
G1 X106.53 Y145.703 E10.25579
G1 X105.866 Y145.353 E10.26913
G1 X105.079 Y144.875 E10.2855
G1 X104.494 Y144.471 E10.29814
G1 X103.784 Y143.917 E10.31415
G1 X103.23 Y143.429 E10.32727
G1 X102.59 Y142.791 E10.34333
G1 X102.091 Y142.227 E10.35672
G1 X101.538 Y141.519 E10.37269
G1 X101.136 Y140.938 E10.38525
G1 X100.656 Y140.15 E10.40165
G1 X100.306 Y139.487 E10.41498
G1 X99.94 Y138.676 E10.43079
G1 X99.674 Y137.974 E10.44414
G1 X99.405 Y137.106 E10.46029
G1 X99.234 Y136.414 E10.47296
G1 X99.079 Y135.58 E10.48804
G1 X98.877 Y135.59 E10.49164
G1 X74.123 Y135.59 E10.93166
G1 X73.426 Y135.55 E10.94407
G1 X72.739 Y135.431 E10.95647
G1 X72.07 Y135.233 E10.96887
G1 X71.427 Y134.961 E10.98128
G1 X70.821 Y134.617 E10.99367
G1 X70.257 Y134.205 E11.00608
G1 X69.817 Y133.806 E11.01664
G1 X69.694 Y133.683 E11.01973
G1 X69.229 Y133.162 E11.03215
G1 X68.828 Y132.592 E11.04453
G1 X68.494 Y131.979 E11.05694
G1 X68.232 Y131.332 E11.06935
G1 X68.047 Y130.66 E11.08174
G1 X67.939 Y129.971 E11.09414
G1 X67.91 Y129.377 E11.10471
G1 X67.91 Y109.623 E11.45586
G1 X67.95 Y108.926 E11.46827
G1 X68.069 Y108.239 E11.48066
G1 X68.267 Y107.57 E11.49306
G1 X68.539 Y106.927 E11.50547
G1 X68.883 Y106.321 E11.51786
G1 X69.295 Y105.757 E11.53028
G1 X69.694 Y105.317 E11.54084
G1 X69.817 Y105.194 E11.54393
G1 X70.338 Y104.729 E11.55634
G1 X70.908 Y104.328 E11.56873
M204 S625
M205 X6 Y6
G0 F4285.7 X71.17 Y104.66
M204 S500
M205 X5 Y5
G1 F1200 X71.765 Y104.344 E11.5807
G1 X72.392 Y104.101 E11.59266
G1 X73.044 Y103.934 E11.60462
G1 X73.712 Y103.845 E11.6166
G1 X74.123 Y103.83 E11.62391
G1 X98.716 Y103.83 E12.06108
G1 X98.751 Y103.63 E12.06469
G1 X98.946 Y102.985 E12.07666
G1 X99.08 Y102.654 E12.08301
G1 X101.177 Y97.902 E12.17534
G1 X101.485 Y97.303 E12.18732
G1 X101.861 Y96.745 E12.19928
G1 X102.301 Y96.236 E12.21124
G1 X102.557 Y95.989 E12.21756
G1 X106.41 Y92.498 E12.30998
G1 X106.935 Y92.077 E12.32194
G1 X107.506 Y91.72 E12.33392
G1 X108.115 Y91.434 E12.34588
G1 X108.449 Y91.313 E12.35219
G1 X113.387 Y89.692 E12.44458
G1 X114.038 Y89.52 E12.45655
G1 X114.704 Y89.427 E12.4685
G1 X115.377 Y89.413 E12.48047
G1 X115.73 Y89.438 E12.48676
G1 X120.903 Y89.965 E12.57919
G1 X121.567 Y90.073 E12.59115
G1 X122.214 Y90.259 E12.60311
G1 X122.835 Y90.52 E12.61509
G1 X123.151 Y90.689 E12.62146
G1 X127.657 Y93.276 E12.71382
G1 X128.22 Y93.645 E12.72578
G1 X128.735 Y94.078 E12.73774
G1 X129.195 Y94.57 E12.74972
G1 X129.414 Y94.85 E12.75604
G1 X132.48 Y99.05 E12.84847
G1 X132.844 Y99.616 E12.86043
G1 X133.138 Y100.222 E12.87241
G1 X133.358 Y100.858 E12.88437
G1 X133.444 Y101.202 E12.89067
G1 X134.535 Y106.282 E12.98303
G1 X134.637 Y106.948 E12.99501
G1 X134.659 Y107.621 E13.00698
G1 X134.602 Y108.291 E13.01893
G1 X134.54 Y108.638 E13.0252
G1 X133.472 Y113.725 E13.1176
G1 X133.295 Y114.374 E13.12955
G1 X133.042 Y114.998 E13.14152
G1 X132.717 Y115.588 E13.1535
G1 X132.515 Y115.885 E13.15988
G1 X129.465 Y120.097 E13.25232
G1 X129.039 Y120.618 E13.26429
G1 X128.554 Y121.085 E13.27625
G1 X128.017 Y121.491 E13.28822
G1 X127.725 Y121.673 E13.29434
G1 X123.307 Y124.244 E13.3852
G1 X122.398 Y124.67 E13.40305
G1 X122.292 Y124.709 E13.40505
G1 X122.575 Y125.028 E13.41263
