;Generated with Cura_SteamEngine 15.01
; Default start code
G28 ; Home extruder
G1 Z15 F100
M107 ; Turn off fan
G90 ; Absolute positioning
M82 ; Extruder in absolute mode
M190 S50
; Activate all used extruder
M104 T0 S210
G92 E0 ; Reset extruder position
; Wait for all used extruders to reach temperature
M109 T0 S210
;Layer count: 50
;LAYER:0
M107
G0 F6000 X71.026 Y135.557 Z0.150
;TYPE:SKIRT
G1 F1800 X74.831 Y134.322 E0.11328
G1 X75.886 Y134.111 E0.14374
G1 X80.126 Y134.557 E0.26446
G1 X81.166 Y134.834 E0.29494
G1 X85.356 Y137.254 E0.43195
G1 X88.450 Y141.503 E0.58078
G1 X89.404 Y145.956 E0.70974
G1 X89.475 Y147.034 E0.74033
G1 X88.461 Y151.799 E0.87828
G1 X85.374 Y156.056 E1.02718
G1 X80.822 Y158.690 E1.17609
G1 X75.590 Y159.247 E1.32508
G1 X70.583 Y157.625 E1.47411
G1 X66.672 Y154.108 E1.62305
G1 X64.531 Y149.317 E1.77164
G1 X64.521 Y144.805 E1.89941
G1 X64.668 Y143.703 E1.93089
G1 X66.352 Y139.920 E2.04814
G1 X66.924 Y138.991 E2.07903
G1 X70.110 Y136.121 E2.20045
G1 X71.026 Y135.557 E2.23091
G0 F6000 X71.202 Y135.937
G1 F1800 X74.936 Y134.726 E2.34207
G1 X75.905 Y134.532 E2.37005
G1 X80.050 Y134.967 E2.48807
G1 X81.005 Y135.222 E2.51606
G1 X85.072 Y137.570 E2.64903
G1 X88.062 Y141.676 E2.79286
G1 X88.991 Y146.014 E2.91848
G1 X89.057 Y147.004 E2.94657
G1 X88.073 Y151.626 E3.08038
G1 X85.090 Y155.740 E3.22428
G1 X80.690 Y158.286 E3.36822
G1 X75.634 Y158.824 E3.51220
G1 X70.796 Y157.257 E3.65620
G1 X67.015 Y153.858 E3.80016
G1 X64.947 Y149.228 E3.94375
G1 X64.937 Y144.832 E4.06823
G1 X65.073 Y143.817 E4.09723
G1 X66.721 Y140.115 E4.21197
G1 X67.247 Y139.260 E4.24039
G1 X70.360 Y136.456 E4.35903
G1 X71.202 Y135.937 E4.38704
G0 F6000 X71.378 Y136.318
G1 F1800 X75.041 Y135.129 E4.49609
G1 X75.925 Y134.952 E4.52161
G1 X79.974 Y135.377 E4.63690
G1 X80.845 Y135.609 E4.66242
G1 X84.788 Y137.886 E4.79135
G1 X87.674 Y141.849 E4.93017
G1 X88.577 Y146.072 E5.05245
G1 X88.638 Y146.974 E5.07805
G1 X87.684 Y151.453 E5.20772
G1 X84.805 Y155.424 E5.34661
G1 X80.558 Y157.882 E5.48556
G1 X75.678 Y158.401 E5.62452
G1 X71.008 Y156.889 E5.76351
G1 X67.359 Y153.608 E5.90247
G1 X65.363 Y149.139 E6.04106
G1 X65.353 Y144.859 E6.16225
G1 X65.477 Y143.932 E6.18874
G1 X67.089 Y140.309 E6.30102
G1 X67.570 Y139.529 E6.32697
G1 X70.610 Y136.790 E6.44284
G1 X71.378 Y136.318 E6.46836
G1 F1800 E3.46836
G0 F6000 X74.318 Y142.193
;TYPE:WALL-INNER
G1 F1800 E6.46836
G1 X76.362 Y141.529 E6.52922
G1 X78.495 Y141.753 E6.58995
G1 X80.345 Y142.822 E6.65045
G1 X81.611 Y144.560 E6.71134
G1 X82.062 Y146.665 E6.77229
G1 X81.617 Y148.755 E6.83280
G1 X80.356 Y150.493 E6.89360
G1 X78.499 Y151.568 E6.95436
G1 X76.366 Y151.795 E7.01510
G1 X74.323 Y151.134 E7.07590
G1 X72.728 Y149.699 E7.13666
G1 X71.856 Y147.747 E7.19719
G1 X71.851 Y145.585 E7.25841
G1 X72.721 Y143.631 E7.31898
G1 X74.318 Y142.193 E7.37983
G0 F6000 X74.433 Y142.389
G1 F1800 X72.268 Y144.967 E7.47516
G1 X72.260 Y147.878 E7.55759
G1 X72.520 Y148.659 E7.58089
G1 X74.175 Y150.631 E7.65379
G1 X74.902 Y151.019 E7.67713
G1 X77.756 Y151.523 E7.75919
G1 X80.680 Y149.835 E7.85479
G1 X81.835 Y146.663 E7.95038
G1 X80.680 Y143.491 E8.04597
G1 X77.757 Y141.803 E8.14155
G1 X74.433 Y142.389 E8.23712
G0 F6000 X74.654 Y142.773
G1 F1800 X72.684 Y145.119 E8.32387
G1 X72.676 Y147.811 E8.40010
G1 X72.890 Y148.452 E8.41923
G1 X74.442 Y150.302 E8.48761
G1 X75.040 Y150.621 E8.50680
G1 X77.680 Y151.087 E8.58271
G1 X80.341 Y149.551 E8.66971
G1 X81.392 Y146.663 E8.75673
G1 X80.341 Y143.775 E8.84376
G1 X77.680 Y142.239 E8.93076
G1 X74.654 Y142.773 E9.01777
G0 F6000 X74.105 Y141.825
G1 F1800 X76.318 Y141.107 E9.08365
G1 X78.627 Y141.350 E9.14939
G1 X80.632 Y142.507 E9.21494
G1 X81.998 Y144.383 E9.28065
G1 X82.487 Y146.667 E9.34679
G1 X82.005 Y148.928 E9.41225
G1 X80.642 Y150.809 E9.47803
G1 X78.630 Y151.973 E9.54385
G1 X76.322 Y152.219 E9.60957
G1 X74.112 Y151.503 E9.67535
G1 X72.383 Y149.949 E9.74118
G1 X71.440 Y147.837 E9.80667
G1 X71.435 Y145.498 E9.87291
G1 X72.376 Y143.382 E9.93848
G1 X74.105 Y141.825 E10.00436
G0 F6000 X73.892 Y141.456
G1 F1800 X76.273 Y140.684 E10.07524
G1 X78.758 Y140.945 E10.14599
G1 X80.916 Y142.191 E10.21655
G1 X82.387 Y144.210 E10.28729
G1 X82.912 Y146.667 E10.35843
G1 X82.395 Y149.099 E10.42883
G1 X80.925 Y151.126 E10.49974
G1 X78.763 Y152.377 E10.57047
G1 X76.276 Y152.641 E10.64128
G1 X73.899 Y151.871 E10.71203
G1 X72.040 Y150.200 E10.78281
G1 X71.024 Y147.926 E10.85334
G1 X71.019 Y145.410 E10.92458
G1 X72.033 Y143.131 E10.99522
G1 X73.892 Y141.456 E11.06607
G0 F6000 X74.876 Y143.156
G1 F1800 X73.100 Y145.271 E11.14427
G1 X73.092 Y147.744 E11.21430
G1 X73.259 Y148.245 E11.22925
G1 X74.709 Y149.973 E11.29313
G1 X75.177 Y150.223 E11.30815
G1 X77.603 Y150.651 E11.37791
G1 X80.002 Y149.266 E11.45635
G1 X80.949 Y146.663 E11.53478
G1 X80.002 Y144.060 E11.61321
G1 X77.603 Y142.675 E11.69165
G1 X74.876 Y143.156 E11.77006
G0 F6000 X75.097 Y143.540
G1 F1800 X73.515 Y145.423 E11.83970
G1 X73.509 Y147.677 E11.90353
G1 X73.629 Y148.039 E11.91432
G1 X74.976 Y149.644 E11.97366
G1 X75.314 Y149.824 E11.98450
G1 X77.526 Y150.215 E12.04811
G1 X79.663 Y148.981 E12.11798
G1 X80.507 Y146.663 E12.18783
G1 X79.663 Y144.345 E12.25769
G1 X77.526 Y143.111 E12.32756
G1 X75.097 Y143.540 E12.39741
G0 F6000 X73.681 Y141.088
G1 F1800 X76.229 Y140.261 E12.47326
G1 X78.888 Y140.540 E12.54897
G1 X81.200 Y141.875 E12.62456
G1 X82.775 Y144.038 E12.70033
G1 X83.338 Y146.666 E12.77643
G1 X82.783 Y149.272 E12.85188
G1 X81.210 Y151.441 E12.92775
G1 X78.894 Y152.781 E13.00351
G1 X76.232 Y153.065 E13.07932
G1 X73.687 Y152.240 E13.15508
G1 X71.698 Y150.452 E13.23081
G1 X70.609 Y148.013 E13.30644
G1 X70.602 Y145.322 E13.38264
G1 X71.689 Y142.882 E13.45828
G1 X73.681 Y141.088 E13.53419
G0 F6000 X73.468 Y140.720
G1 F1800 X76.185 Y139.838 E13.61507
G1 X79.022 Y140.136 E13.69585
G1 X81.485 Y141.558 E13.77638
G1 X83.163 Y143.863 E13.85711
G1 X83.763 Y146.666 E13.93828
G1 X83.171 Y149.446 E14.01876
G1 X81.497 Y151.756 E14.09954
G1 X79.025 Y153.186 E14.18041
G1 X76.191 Y153.488 E14.26111
G1 X73.474 Y152.608 E14.34198
G1 X71.353 Y150.701 E14.42275
G1 X70.193 Y148.103 E14.50331
G1 X70.186 Y145.235 E14.58452
G1 X71.344 Y142.633 E14.66517
G1 X73.468 Y140.720 E14.74611
G0 F6000 X75.318 Y143.923
G1 F1800 X73.931 Y145.575 E14.80719
G1 X73.925 Y147.610 E14.86481
G1 X73.999 Y147.832 E14.87144
G1 X75.243 Y149.315 E14.92625
G1 X75.452 Y149.426 E14.93295
G1 X77.449 Y149.779 E14.99037
G1 X79.324 Y148.697 E15.05167
G1 X80.064 Y146.663 E15.11296
G1 X79.324 Y144.629 E15.17425
G1 X77.449 Y143.547 E15.23555
G1 X75.318 Y143.923 E15.29682
G0 F6000 X75.539 Y144.306
;TYPE:WALL-OUTER
G1 F1800 X74.346 Y145.727 E15.34936
G1 X74.341 Y147.543 E15.40078
G1 X74.368 Y147.625 E15.40323
G1 X75.510 Y148.986 E15.45354
G1 X75.589 Y149.028 E15.45607
G1 X77.372 Y149.343 E15.50734
G1 X78.985 Y148.412 E15.56007
G1 X79.621 Y146.663 E15.61277
G1 X78.985 Y144.914 E15.66547
G1 X77.372 Y143.983 E15.71821
G1 X75.539 Y144.306 E15.77091
G0 F6000 X75.305 Y144.108
G0 X73.399 Y140.628
G0 X73.255 Y140.351
G1 F1800 X76.140 Y139.415 E15.85679
G1 X79.153 Y139.732 E15.94258
G1 X81.769 Y141.242 E16.02811
G1 X83.552 Y143.690 E16.11386
G1 X84.189 Y146.665 E16.20001
G1 X83.560 Y149.618 E16.28551
G1 X81.781 Y152.072 E16.37133
G1 X79.159 Y153.590 E16.45712
G1 X76.145 Y153.910 E16.54295
G1 X73.262 Y152.977 E16.62875
G1 X71.009 Y150.951 E16.71455
G1 X69.777 Y148.192 E16.80011
G1 X69.770 Y145.147 E16.88633
G1 X71.001 Y142.382 E16.97203
G1 X73.255 Y140.351 E17.05795
G0 F6000 X73.399 Y140.628
G0 X75.709 Y141.894
;TYPE:FILL
G1 F1800 X75.982 Y141.873 E17.06203
G1 X76.506 Y141.809 E17.06832
G1 X76.777 Y141.786 E17.07602
G0 F6000 X73.257 Y143.561
G1 F1800 X72.989 Y143.587 E17.08056
G1 X72.988 Y143.880 E17.08886
G0 F6000 X74.009 Y147.826
G0 X75.721 Y151.320
G1 F1800 X76.156 Y151.460 E17.09549
G1 X76.610 Y151.620 E17.10912
G0 F6000 X81.272 Y148.633
G1 F1800 X81.488 Y148.556 E17.11499
G1 X81.429 Y148.202 E17.12515
G0 F6000 X81.502 Y144.746
G1 F1800 X81.170 Y144.413 E17.13846
;LAYER:1
M106 S114
G0 F6000 X81.617 Y144.560 Z0.350
;TYPE:WALL-INNER
G1 F2040 X82.065 Y146.665 E17.21972
G1 X81.618 Y148.764 E17.30074
G1 X80.356 Y150.499 E17.38174
G1 X78.493 Y151.574 E17.46295
G1 X76.361 Y151.799 E17.54389
G1 X74.317 Y151.136 E17.62502
G1 X72.710 Y149.689 E17.70666
G1 X71.846 Y147.747 E17.78691
G1 X71.845 Y145.583 E17.86861
G1 X72.711 Y143.635 E17.94910
G1 X74.316 Y142.190 E18.03064
G1 X76.359 Y141.527 E18.11173
G1 X78.495 Y141.751 E18.19282
G1 X80.355 Y142.825 E18.27391
G1 X81.617 Y144.560 E18.35491
G0 F6000 X80.680 Y143.491
G1 F2040 X77.757 Y141.803 E18.48234
G1 X74.437 Y142.389 E18.60963
G1 X72.606 Y144.557 E18.71677
G1 X72.261 Y145.332 E18.74879
G1 X72.255 Y147.799 E18.84194
G1 X72.497 Y148.637 E18.87487
G1 X73.951 Y150.372 E18.96033
G1 X74.581 Y150.963 E18.99295
G1 X77.757 Y151.523 E19.11470
G1 X80.680 Y149.835 E19.24214
G1 X81.835 Y146.663 E19.36959
G1 X80.680 Y143.491 E19.49704
G0 F6000 X80.341 Y143.775
G1 F2040 X77.680 Y142.239 E19.61304
G1 X74.657 Y142.772 E19.72894
G1 X72.962 Y144.780 E19.82815
G1 X72.677 Y145.421 E19.85463
G1 X72.671 Y147.741 E19.94223
G1 X72.872 Y148.437 E19.96958
G1 X74.254 Y150.085 E20.05078
G1 X74.775 Y150.575 E20.07778
G1 X77.680 Y151.087 E20.18915
G1 X80.341 Y149.551 E20.30515
G1 X81.392 Y146.663 E20.42118
G1 X80.341 Y143.775 E20.53722
G0 F6000 X80.639 Y142.507
G1 F2040 X82.005 Y144.387 E20.62495
G1 X82.490 Y146.663 E20.71281
G1 X82.006 Y148.937 E20.80059
G1 X80.640 Y150.817 E20.88833
G1 X78.628 Y151.978 E20.97603
G1 X76.314 Y152.222 E21.06388
G1 X74.106 Y151.505 E21.15153
G1 X72.366 Y149.938 E21.23993
G1 X71.430 Y147.835 E21.32684
G1 X71.429 Y145.493 E21.41526
G1 X72.365 Y143.388 E21.50224
G1 X74.105 Y141.821 E21.59065
G1 X76.314 Y141.104 E21.67833
G1 X78.627 Y141.346 E21.76613
G1 X80.639 Y142.507 E21.85384
G0 F6000 X80.923 Y142.191
G1 F2040 X82.394 Y144.215 E21.94830
G1 X82.915 Y146.665 E22.04287
G1 X82.395 Y149.109 E22.13721
G1 X80.924 Y151.133 E22.23167
G1 X78.758 Y152.383 E22.32609
G1 X76.272 Y152.645 E22.42047
G1 X73.891 Y151.872 E22.51498
G1 X72.023 Y150.189 E22.60991
G1 X71.014 Y147.923 E22.70356
G1 X71.013 Y145.405 E22.79863
G1 X72.022 Y143.137 E22.89235
G1 X73.890 Y141.454 E22.98728
G1 X76.272 Y140.681 E23.08183
G1 X78.757 Y140.941 E23.17616
G1 X80.923 Y142.191 E23.27058
G0 F6000 X80.002 Y144.060
G1 F2040 X77.603 Y142.675 E23.37516
G1 X74.878 Y143.156 E23.47963
G1 X73.318 Y145.003 E23.57091
G1 X73.093 Y145.509 E23.59182
G1 X73.088 Y147.683 E23.67390
G1 X73.247 Y148.237 E23.69566
G1 X74.557 Y149.799 E23.77263
G1 X74.970 Y150.186 E23.79399
G1 X77.603 Y150.651 E23.89494
G1 X80.002 Y149.266 E23.99953
G1 X80.949 Y146.663 E24.10410
G1 X80.002 Y144.060 E24.20868
G0 F6000 X79.663 Y144.345
G1 F2040 X77.526 Y143.111 E24.30185
G1 X75.098 Y143.539 E24.39493
G1 X73.674 Y145.226 E24.47828
G1 X73.509 Y145.598 E24.49365
G1 X73.504 Y147.625 E24.57017
G1 X73.623 Y148.038 E24.58640
G1 X74.860 Y149.513 E24.65908
G1 X75.164 Y149.798 E24.67481
G1 X77.526 Y150.215 E24.76537
G1 X79.663 Y148.981 E24.85854
G1 X80.507 Y146.663 E24.95167
G1 X79.663 Y144.345 E25.04481
G0 F6000 X81.210 Y141.877
G1 F2040 X82.783 Y144.041 E25.14582
G1 X83.341 Y146.663 E25.24703
G1 X82.783 Y149.284 E25.34820
G1 X81.211 Y151.447 E25.44915
G1 X78.888 Y152.788 E25.55042
G1 X76.228 Y153.068 E25.65140
G1 X73.680 Y152.241 E25.75254
G1 X71.678 Y150.438 E25.85426
G1 X70.598 Y148.011 E25.95456
G1 X70.597 Y145.317 E26.05627
G1 X71.677 Y142.887 E26.15667
G1 X73.679 Y141.085 E26.25836
G1 X76.227 Y140.257 E26.35951
G1 X78.887 Y140.536 E26.46049
G1 X81.210 Y141.877 E26.56176
G0 F6000 X81.492 Y141.558
G1 F2040 X83.171 Y143.869 E26.66961
G1 X83.766 Y146.665 E26.77753
G1 X83.172 Y149.455 E26.88523
G1 X81.493 Y151.766 E26.99308
G1 X79.023 Y153.191 E27.10074
G1 X76.181 Y153.491 E27.20864
G1 X73.469 Y152.610 E27.31629
G1 X71.337 Y150.691 E27.42459
G1 X70.182 Y148.100 E27.53169
G1 X70.181 Y145.263 E27.63880
G1 X70.181 Y145.228 E27.64013
G1 X71.329 Y142.648 E27.74674
G1 X71.336 Y142.635 E27.74730
G1 X73.468 Y140.716 E27.85560
G1 X76.181 Y139.835 E27.96329
G1 X79.022 Y140.133 E28.07114
G1 X81.492 Y141.558 E28.17880
G0 F6000 X79.324 Y144.629
G1 F2040 X77.449 Y143.547 E28.26053
G1 X75.319 Y143.923 E28.34219
G1 X74.030 Y145.449 E28.41761
G1 X73.924 Y145.687 E28.42745
G1 X73.920 Y147.566 E28.49839
G1 X73.998 Y147.838 E28.50907
G1 X75.163 Y149.226 E28.57749
G1 X75.358 Y149.410 E28.58761
G1 X77.449 Y149.779 E28.66778
G1 X79.324 Y148.697 E28.74951
G1 X80.064 Y146.663 E28.83123
G1 X79.324 Y144.629 E28.91294
G0 F6000 X78.985 Y144.914
;TYPE:WALL-OUTER
G1 F1740 X77.372 Y143.983 E28.98326
G1 X75.540 Y144.306 E29.05349
G1 X74.386 Y145.672 E29.12100
G1 X74.340 Y145.776 E29.12530
G1 X74.336 Y147.508 E29.19069
G1 X74.373 Y147.638 E29.19579
G1 X75.466 Y148.940 E29.25997
G1 X75.553 Y149.022 E29.26449
G1 X77.372 Y149.343 E29.33423
G1 X78.985 Y148.412 E29.40454
G1 X79.621 Y146.663 E29.47480
G1 X78.985 Y144.914 E29.54507
G0 F6000 X79.140 Y144.648
G0 X81.574 Y141.480
G0 X81.759 Y141.233
G1 F1740 X81.789 Y141.259 E29.54657
G1 X83.549 Y143.680 E29.65957
G1 X83.564 Y143.714 E29.66097
G1 X84.187 Y146.644 E29.77407
G1 X84.188 Y146.684 E29.77558
G1 X83.565 Y149.610 E29.88853
G1 X83.550 Y149.644 E29.88993
G1 X81.790 Y152.065 E30.00294
G1 X81.760 Y152.091 E30.00443
G1 X79.167 Y153.588 E30.11748
G1 X79.134 Y153.598 E30.11878
G1 X76.153 Y153.912 E30.23195
G1 X76.119 Y153.908 E30.23324
G1 X73.267 Y152.981 E30.34646
G1 X73.242 Y152.966 E30.34756
G1 X71.014 Y150.960 E30.46075
G1 X70.960 Y150.871 E30.46468
G1 X69.782 Y148.224 E30.57407
G1 X69.766 Y148.158 E30.57663
G1 X69.765 Y145.260 E30.68605
G1 X69.766 Y145.169 E30.68948
G1 X69.783 Y145.101 E30.69213
G1 X70.959 Y142.455 E30.80145
G1 X71.013 Y142.366 E30.80538
G1 X73.241 Y140.360 E30.91857
G1 X73.266 Y140.345 E30.91967
G1 X76.118 Y139.418 E31.03289
G1 X76.153 Y139.414 E31.03422
G1 X79.133 Y139.726 E31.14735
G1 X79.166 Y139.736 E31.14865
G1 X81.759 Y141.233 E31.26169
G0 F6000 X81.574 Y141.480
G0 X81.276 Y144.341
;TYPE:FILL
G1 F2520 X81.339 Y144.571 E31.26678
G1 X81.469 Y145.029 E31.27542
G1 X81.494 Y145.299 E31.28566
G0 F6000 X81.603 Y148.132
G1 F2520 X81.370 Y148.365 E31.29810
G0 F6000 X76.519 Y151.451
G1 F2520 X76.177 Y151.499 E31.30791
G1 X75.890 Y151.491 E31.31875
G0 F6000 X73.365 Y149.899
G1 F2520 X73.113 Y149.856 E31.32392
G1 X72.962 Y149.419 E31.33126
G1 X72.725 Y149.362 E31.34047
G0 F6000 X72.687 Y144.106
G1 F2520 X73.382 Y143.410 E31.37760
G0 F6000 X76.006 Y141.963
G1 F2520 X76.488 Y141.775 E31.39094
G1 X76.784 Y141.774 E31.40211
;LAYER:2
M106 S229
G0 F6000 X76.358 Y141.524 Z0.550
;TYPE:WALL-INNER
G1 F2400 X78.496 Y141.748 E31.48327
G1 X80.357 Y142.822 E31.56440
G1 X81.621 Y144.560 E31.64553
G1 X82.068 Y146.665 E31.72678
G1 X81.622 Y148.764 E31.80780
G1 X80.358 Y150.502 E31.88893
G1 X78.495 Y151.578 E31.97016
G1 X76.360 Y151.803 E32.05121
G1 X74.317 Y151.139 E32.13232
G1 X72.701 Y149.684 E32.21442
G1 X71.840 Y147.751 E32.29431
G1 X71.839 Y145.575 E32.37646
G1 X72.700 Y143.642 E32.45635
G1 X74.316 Y142.187 E32.53845
G1 X76.358 Y141.524 E32.61951
G0 F6000 X77.757 Y141.803
G1 F2400 X74.440 Y142.388 E32.74668
G1 X72.627 Y144.525 E32.85248
G1 X72.259 Y145.323 E32.88566
G1 X72.249 Y147.696 E32.97525
G1 X72.394 Y148.346 E33.00040
G1 X72.670 Y148.851 E33.02212
G1 X73.928 Y150.351 E33.09604
G1 X74.585 Y150.964 E33.12996
G1 X77.757 Y151.523 E33.25157
G1 X80.680 Y149.835 E33.37900
G1 X81.835 Y146.663 E33.50645
G1 X80.680 Y143.491 E33.63390
G1 X77.757 Y141.803 E33.76134
G0 F6000 X77.680 Y142.239
G1 F2400 X74.660 Y142.772 E33.87712
G1 X72.981 Y144.750 E33.97508
G1 X72.675 Y145.415 E34.00272
