;Generated with Cura_SteamEngine 15.01
; Default start code
G28 ; Home extruder
G1 Z15 F100
M107 ; Turn off fan
G90 ; Absolute positioning
M82 ; Extruder in absolute mode
M190 S50
; Activate all used extruder
M104 T0 S210
G92 E0 ; Reset extruder position
; Wait for all used extruders to reach temperature
M109 T0 S210
;Layer count: 50
;LAYER:0
M107
G0 F6000 X79.496 Y81.828 Z0.150
;TYPE:SKIRT
G1 F1800 X82.680 Y78.958 E0.12138
G1 X83.597 Y78.394 E0.15186
G1 X87.402 Y77.159 E0.26514
G1 X88.456 Y76.948 E0.29558
G1 X92.698 Y77.394 E0.41636
G1 X93.738 Y77.671 E0.44683
G1 X97.928 Y80.091 E0.58384
G1 X99.903 Y82.803 E0.67884
G1 X99.924 Y82.757 E0.68027
G1 X100.496 Y81.828 E0.71117
G1 X103.680 Y78.958 E0.83255
G1 X104.597 Y78.394 E0.86303
G1 X108.402 Y77.159 E0.97631
G1 X109.456 Y76.948 E1.00674
G1 X113.698 Y77.394 E1.12752
G1 X114.738 Y77.671 E1.15800
G1 X118.928 Y80.091 E1.29501
G1 X122.023 Y84.340 E1.44386
G1 X122.975 Y88.794 E1.57283
G1 X123.046 Y89.870 E1.60336
G1 X122.034 Y94.635 E1.74130
G1 X118.946 Y98.893 E1.89024
G1 X114.394 Y101.527 E2.03916
G1 X109.161 Y102.084 E2.18817
G1 X104.154 Y100.462 E2.33720
G1 X100.244 Y96.945 E2.48612
G1 X99.906 Y96.190 E2.50954
G1 X97.946 Y98.893 E2.60409
G1 X96.036 Y99.998 E2.66657
G1 X97.928 Y101.091 E2.72844
G1 X101.023 Y105.340 E2.87729
G1 X101.975 Y109.794 E3.00626
G1 X102.046 Y110.870 E3.03679
G1 X101.034 Y115.635 E3.17473
G1 X97.946 Y119.893 E3.32367
G1 X93.394 Y122.527 E3.47259
G1 X88.161 Y123.084 E3.62160
G1 X83.154 Y121.462 E3.77064
G1 X79.244 Y117.945 E3.91955
G1 X77.102 Y113.155 E4.06813
G1 X77.092 Y108.642 E4.19592
G1 X77.239 Y107.539 E4.22743
G1 X78.924 Y103.757 E4.34467
G1 X79.496 Y102.828 E4.37556
G1 X82.637 Y99.997 E4.49530
G1 X79.244 Y96.945 E4.62452
G1 X77.102 Y92.155 E4.77310
G1 X77.092 Y87.642 E4.90089
G1 X77.239 Y86.539 E4.93240
G1 X78.924 Y82.757 E5.04964
G1 X79.496 Y81.828 E5.08053
G0 F6000 X79.819 Y82.097
G1 F1800 X82.931 Y79.293 E5.19915
G1 X83.773 Y78.774 E5.22715
G1 X87.507 Y77.563 E5.33831
G1 X88.476 Y77.369 E5.36629
G1 X92.622 Y77.804 E5.48433
G1 X93.577 Y78.059 E5.51232
G1 X97.644 Y80.407 E5.64530
G1 X99.991 Y83.630 E5.75820
G1 X100.293 Y82.951 E5.77924
G1 X100.819 Y82.097 E5.80764
G1 X103.931 Y79.293 E5.92625
G1 X104.773 Y78.774 E5.95426
G1 X108.507 Y77.563 E6.06541
G1 X109.476 Y77.369 E6.09340
G1 X113.622 Y77.804 E6.21144
G1 X114.577 Y78.059 E6.23943
G1 X118.644 Y80.407 E6.37241
G1 X121.635 Y84.514 E6.51627
G1 X122.562 Y88.852 E6.64188
G1 X122.627 Y89.840 E6.66992
G1 X121.645 Y94.463 E6.80374
G1 X118.662 Y98.577 E6.94764
G1 X114.262 Y101.123 E7.09158
G1 X109.205 Y101.661 E7.23558
G1 X104.366 Y100.094 E7.37961
G1 X100.588 Y96.695 E7.52351
G1 X99.992 Y95.363 E7.56483
G1 X97.662 Y98.577 E7.67724
G1 X95.205 Y99.999 E7.75763
G1 X97.644 Y101.407 E7.83737
G1 X100.635 Y105.514 E7.98124
G1 X101.562 Y109.852 E8.10685
G1 X101.627 Y110.840 E8.13488
G1 X100.645 Y115.463 E8.26871
G1 X97.662 Y119.577 E8.41260
G1 X93.262 Y122.123 E8.55655
G1 X88.205 Y122.661 E8.70055
G1 X83.366 Y121.094 E8.84458
G1 X79.588 Y117.695 E8.98848
G1 X77.518 Y113.065 E9.13209
G1 X77.508 Y108.669 E9.25657
G1 X77.644 Y107.654 E9.28556
G1 X79.293 Y103.951 E9.40035
G1 X79.819 Y103.097 E9.42875
G1 X82.931 Y100.293 E9.54736
G1 X83.320 Y100.053 E9.56030
G1 X79.588 Y96.695 E9.70246
G1 X77.518 Y92.065 E9.84607
G1 X77.508 Y87.669 E9.97055
G1 X77.644 Y86.654 E9.99955
G1 X79.293 Y82.951 E10.11433
G1 X79.819 Y82.097 E10.14273
G0 F6000 X80.141 Y82.366
G1 F1800 X83.181 Y79.627 E10.25860
G1 X83.949 Y79.155 E10.28412
G1 X87.612 Y77.966 E10.39317
G1 X88.496 Y77.789 E10.41870
G1 X92.546 Y78.214 E10.53401
G1 X93.417 Y78.446 E10.55953
G1 X97.360 Y80.723 E10.68846
G1 X100.078 Y84.456 E10.81922
G1 X100.662 Y83.146 E10.85983
G1 X101.141 Y82.366 E10.88575
G1 X104.181 Y79.627 E11.00162
G1 X104.949 Y79.155 E11.02714
G1 X108.612 Y77.966 E11.13619
G1 X109.496 Y77.789 E11.16172
G1 X113.546 Y78.214 E11.27703
G1 X114.417 Y78.446 E11.30255
G1 X118.360 Y80.723 E11.43148
G1 X121.246 Y84.687 E11.57033
G1 X122.148 Y88.909 E11.69257
G1 X122.209 Y89.810 E11.71815
G1 X121.257 Y94.290 E11.84783
G1 X118.377 Y98.261 E11.98674
G1 X114.130 Y100.719 E12.12568
G1 X109.249 Y101.238 E12.26467
G1 X104.579 Y99.725 E12.40368
G1 X100.931 Y96.445 E12.54259
G1 X100.078 Y94.537 E12.60177
G1 X97.377 Y98.261 E12.73204
G1 X94.374 Y99.999 E12.83028
G1 X97.360 Y101.723 E12.92792
G1 X100.246 Y105.687 E13.06676
G1 X101.148 Y109.909 E13.18901
G1 X101.209 Y110.810 E13.21458
G1 X100.257 Y115.290 E13.34427
G1 X97.377 Y119.261 E13.48317
G1 X93.130 Y121.719 E13.62212
G1 X88.249 Y122.238 E13.76111
G1 X83.579 Y120.725 E13.90011
G1 X79.931 Y117.445 E14.03902
G1 X77.934 Y112.976 E14.17763
G1 X77.924 Y108.696 E14.29882
G1 X78.048 Y107.768 E14.32533
G1 X79.662 Y104.146 E14.43761
G1 X80.141 Y103.366 E14.46353
G1 X83.181 Y100.627 E14.57940
G1 X83.949 Y100.155 E14.60493
G1 X84.427 Y100.000 E14.61916
G1 X83.579 Y99.725 E14.64440
G1 X79.931 Y96.445 E14.78331
G1 X77.934 Y91.976 E14.92191
G1 X77.924 Y87.696 E15.04311
G1 X78.048 Y86.768 E15.06962
G1 X79.662 Y83.146 E15.18190
G1 X80.141 Y82.366 E15.20782
G1 F1800 E12.20782
G0 F6000 X85.293 Y86.469
;TYPE:WALL-INNER
G1 F1800 E15.20782
G1 X85.511 Y86.272 E15.21614
G1 X85.232 Y86.604 E15.22842
G1 X85.293 Y86.469 E15.23262
G0 F6000 X88.931 Y84.367
G1 F1800 X89.078 Y84.383 E15.23680
G1 X88.652 Y84.458 E15.24905
G1 X88.931 Y84.367 E15.25736
G0 F6000 X94.183 Y87.397
G1 F1800 X94.243 Y87.678 E15.26550
G1 X94.099 Y87.282 E15.27743
G1 X94.183 Y87.397 E15.28146
G0 F6000 X94.189 Y91.593
G1 F1800 X94.099 Y91.715 E15.28575
G1 X94.251 Y91.298 E15.29832
G1 X94.189 Y91.593 E15.30686
G0 F6000 X88.937 Y94.632
G1 F1800 X88.660 Y94.543 E15.31510
G1 X89.082 Y94.617 E15.32723
G1 X88.937 Y94.632 E15.33135
G0 F6000 X85.301 Y92.537
G1 F1800 X85.242 Y92.406 E15.33542
G1 X85.509 Y92.724 E15.34718
G1 X85.301 Y92.537 E15.35510
G0 F6000 X84.956 Y92.786
G1 F1800 X84.011 Y90.673 E15.42064
G1 X84.006 Y88.336 E15.48682
G1 X84.949 Y86.218 E15.55247
G1 X86.676 Y84.662 E15.61829
G1 X88.889 Y83.944 E15.68417
G1 X91.199 Y84.187 E15.74994
G1 X93.204 Y85.344 E15.81549
G1 X94.570 Y87.220 E15.88120
G1 X95.058 Y89.504 E15.94734
G1 X94.577 Y91.765 E16.01279
G1 X93.214 Y93.646 E16.07857
G1 X91.202 Y94.810 E16.14439
G1 X88.893 Y95.056 E16.21014
G1 X86.683 Y94.340 E16.27592
G1 X84.956 Y92.786 E16.34170
G0 F6000 X84.941 Y91.400
G1 F1800 X86.579 Y93.354 E16.41390
G1 X87.065 Y93.839 E16.43335
G1 X90.338 Y94.416 E16.52745
G1 X93.296 Y92.709 E16.62416
G1 X94.463 Y89.500 E16.72085
G1 X93.296 Y86.291 E16.81754
G1 X90.338 Y84.583 E16.91426
G1 X86.976 Y85.176 E17.01092
G1 X84.783 Y87.786 E17.10745
G1 X84.778 Y90.745 E17.19124
G1 X84.941 Y91.400 E17.21035
G0 F6000 X85.194 Y90.694
G1 F1800 X85.322 Y91.206 E17.22530
G1 X86.886 Y93.072 E17.29424
G1 X87.266 Y93.452 E17.30946
G1 X90.261 Y93.980 E17.39557
G1 X92.957 Y92.424 E17.48372
G1 X94.020 Y89.500 E17.57181
G1 X92.957 Y86.575 E17.65994
G1 X90.261 Y85.019 E17.74808
G1 X87.197 Y85.559 E17.83618
G1 X85.199 Y87.937 E17.92413
G1 X85.194 Y90.694 E18.00219
G0 F6000 X83.595 Y90.763
G1 F1800 X83.590 Y88.247 E18.07344
G1 X84.604 Y85.970 E18.14402
G1 X86.465 Y84.293 E18.21495
G1 X88.844 Y83.521 E18.28578
G1 X91.330 Y83.782 E18.35656
G1 X93.488 Y85.028 E18.42712
G1 X94.959 Y87.048 E18.49787
G1 X95.483 Y89.503 E18.56896
G1 X94.966 Y91.936 E18.63939
G1 X93.497 Y93.963 E18.71027
G1 X91.336 Y95.214 E18.78098
G1 X88.847 Y95.478 E18.85185
G1 X86.472 Y94.709 E18.92254
G1 X84.611 Y93.035 E18.99342
G1 X83.595 Y90.763 E19.06389
G0 F6000 X83.180 Y90.852
G1 F1800 X83.173 Y88.159 E19.14015
G1 X84.260 Y85.719 E19.21579
G1 X86.252 Y83.924 E19.29171
G1 X88.800 Y83.098 E19.36756
G1 X91.460 Y83.377 E19.44329
G1 X93.772 Y84.712 E19.51889
G1 X95.347 Y86.875 E19.59466
G1 X95.909 Y89.503 E19.67075
G1 X95.355 Y92.109 E19.74619
G1 X93.782 Y94.278 E19.82206
G1 X91.466 Y95.618 E19.89783
G1 X88.803 Y95.902 E19.97366
G1 X86.259 Y95.078 E20.04938
G1 X84.267 Y93.286 E20.12525
G1 X83.180 Y90.852 E20.20074
G0 F6000 X85.610 Y90.643
G1 F1800 X85.702 Y91.013 E20.21153
G1 X87.193 Y92.791 E20.27724
G1 X87.468 Y93.065 E20.28823
G1 X90.184 Y93.544 E20.36632
G1 X92.618 Y92.139 E20.44590
G1 X93.578 Y89.500 E20.52542
G1 X92.618 Y86.860 E20.60496
G1 X90.184 Y85.455 E20.68454
G1 X87.418 Y85.942 E20.76407
G1 X85.615 Y88.089 E20.84346
G1 X85.610 Y90.643 E20.91578
G0 F6000 X86.026 Y90.592
G1 F1800 X86.082 Y90.819 E20.92240
G1 X87.500 Y92.510 E20.98489
G1 X87.669 Y92.678 E20.99164
G1 X90.107 Y93.108 E21.06174
G1 X92.279 Y91.855 E21.13274
G1 X93.135 Y89.500 E21.20369
G1 X92.279 Y87.144 E21.27467
G1 X90.107 Y85.891 E21.34568
G1 X87.639 Y86.326 E21.41664
G1 X86.030 Y88.241 E21.48746
G1 X86.026 Y90.592 E21.55403
G0 F6000 X82.764 Y90.939
G1 F1800 X82.757 Y88.072 E21.63522
G1 X83.916 Y85.470 E21.71587
G1 X86.039 Y83.557 E21.79679
G1 X88.756 Y82.675 E21.87768
G1 X91.594 Y82.973 E21.95848
G1 X94.057 Y84.395 E22.03901
G1 X95.736 Y86.700 E22.11976
G1 X96.334 Y89.502 E22.20089
G1 X95.743 Y92.283 E22.28140
G1 X94.069 Y94.593 E22.36218
G1 X91.597 Y96.023 E22.44304
G1 X88.762 Y96.325 E22.52377
G1 X86.045 Y95.445 E22.60464
G1 X83.926 Y93.539 E22.68535
G1 X82.764 Y90.939 E22.76599
G0 F6000 X82.348 Y91.029
;TYPE:WALL-OUTER
G1 F1800 X82.341 Y87.984 E22.85221
G1 X83.573 Y85.219 E22.93792
G1 X85.826 Y83.188 E23.02382
G1 X88.711 Y82.252 E23.10970
G1 X91.725 Y82.569 E23.19552
G1 X94.341 Y84.079 E23.28105
G1 X96.124 Y86.528 E23.36682
G1 X96.760 Y89.500 E23.45288
G1 X96.132 Y92.456 E23.53845
G1 X94.353 Y94.909 E23.62426
G1 X91.731 Y96.427 E23.71005
G1 X88.716 Y96.747 E23.79590
G1 X85.833 Y95.814 E23.88170
G1 X83.581 Y93.788 E23.96748
G1 X82.348 Y91.029 E24.05305
G0 F6000 X82.656 Y90.974
G0 X86.135 Y90.540
G0 X86.442 Y90.541
G1 F1800 X86.463 Y90.625 E24.05550
G1 X87.807 Y92.229 E24.11476
G1 X87.870 Y92.291 E24.11726
G1 X90.030 Y92.672 E24.17937
G1 X91.940 Y91.570 E24.24181
G1 X92.692 Y89.500 E24.30417
G1 X91.940 Y87.429 E24.36656
G1 X90.030 Y86.327 E24.42900
G1 X87.860 Y86.709 E24.49139
G1 X86.446 Y88.393 E24.55366
G1 X86.442 Y90.541 E24.61448
G0 F6000 X85.403 Y90.539
G1 F1800 E21.61448
G0 F6000 X88.931 Y105.367
;TYPE:WALL-INNER
G1 F1800 E24.61448
G1 X89.078 Y105.383 E24.61867
G1 X88.652 Y105.458 E24.63091
G1 X88.931 Y105.367 E24.63922
G0 F6000 X85.293 Y107.469
G1 F1800 X85.511 Y107.272 E24.64754
G1 X85.232 Y107.604 E24.65982
G1 X85.293 Y107.469 E24.66402
G0 F6000 X85.301 Y113.537
G1 F1800 X85.242 Y113.406 E24.66809
G1 X85.509 Y113.724 E24.67984
G1 X85.301 Y113.537 E24.68777
G0 F6000 X88.937 Y115.632
G1 F1800 X88.660 Y115.543 E24.69600
G1 X89.082 Y115.617 E24.70814
G1 X88.937 Y115.632 E24.71226
G0 F6000 X94.189 Y112.593
G1 F1800 X94.099 Y112.715 E24.71656
G1 X94.251 Y112.298 E24.72912
G1 X94.189 Y112.593 E24.73766
G0 F6000 X94.183 Y108.397
G1 F1800 X94.243 Y108.678 E24.74580
G1 X94.099 Y108.282 E24.75773
G1 X94.183 Y108.397 E24.76176
G0 F6000 X94.570 Y108.220
G1 F1800 X95.058 Y110.504 E24.82789
G1 X94.577 Y112.765 E24.89335
G1 X93.214 Y114.646 E24.95913
G1 X91.202 Y115.810 E25.02494
G1 X88.893 Y116.056 E25.09070
G1 X86.683 Y115.340 E25.15648
G1 X84.956 Y113.786 E25.22226
G1 X84.011 Y111.673 E25.28781
G1 X84.006 Y109.336 E25.35398
G1 X84.949 Y107.218 E25.41963
G1 X86.676 Y105.662 E25.48545
G1 X88.889 Y104.944 E25.55133
G1 X91.199 Y105.187 E25.61710
G1 X93.204 Y106.344 E25.68265
G1 X94.570 Y108.220 E25.74836
G0 F6000 X93.296 Y107.291
G1 F1800 X90.338 Y105.583 E25.84508
G1 X86.976 Y106.176 E25.94175
G1 X84.783 Y108.786 E26.03828
G1 X84.778 Y111.745 E26.12207
G1 X84.941 Y112.400 E26.14118
G1 X86.579 Y114.354 E26.21338
G1 X87.065 Y114.839 E26.23282
G1 X90.338 Y115.416 E26.32693
G1 X93.296 Y113.709 E26.42364
G1 X94.463 Y110.500 E26.52032
G1 X93.296 Y107.291 E26.61701
G0 F6000 X92.957 Y107.575
G1 F1800 X90.261 Y106.019 E26.70516
G1 X87.197 Y106.559 E26.79325
G1 X85.199 Y108.937 E26.88120
G1 X85.194 Y111.694 E26.95927
G1 X85.322 Y112.206 E26.97421
G1 X86.886 Y114.072 E27.04316
G1 X87.266 Y114.452 E27.05837
G1 X90.261 Y114.980 E27.14449
G1 X92.957 Y113.424 E27.23263
G1 X94.020 Y110.500 E27.32073
G1 X92.957 Y107.575 E27.40885
G0 F6000 X93.488 Y106.028
G1 F1800 X94.959 Y108.048 E27.47961
G1 X95.483 Y110.503 E27.55069
G1 X94.966 Y112.936 E27.62112
G1 X93.497 Y114.963 E27.69201
G1 X91.336 Y116.214 E27.76271
G1 X88.847 Y116.478 E27.83359
G1 X86.472 Y115.709 E27.90428
G1 X84.611 Y114.035 E27.97516
G1 X83.595 Y111.763 E28.04563
G1 X83.590 Y109.247 E28.11687
G1 X84.604 Y106.970 E28.18745
G1 X86.465 Y105.293 E28.25839
G1 X88.844 Y104.521 E28.32921
G1 X91.330 Y104.782 E28.39999
G1 X93.488 Y106.028 E28.47055
G0 F6000 X93.772 Y105.712
G1 F1800 X95.347 Y107.875 E28.54632
G1 X95.909 Y110.503 E28.62241
G1 X95.355 Y113.109 E28.69785
G1 X93.782 Y115.278 E28.77372
G1 X91.466 Y116.618 E28.84949
G1 X88.803 Y116.902 E28.92532
G1 X86.259 Y116.078 E29.00104
G1 X84.267 Y114.286 E29.07691
G1 X83.180 Y111.852 E29.15240
G1 X83.173 Y109.159 E29.22865
G1 X84.260 Y106.719 E29.30429
G1 X86.252 Y104.924 E29.38022
G1 X88.800 Y104.098 E29.45606
G1 X91.460 Y104.377 E29.53180
G1 X93.772 Y105.712 E29.60739
G0 F6000 X92.618 Y107.860
G1 F1800 X90.184 Y106.455 E29.68697
G1 X87.418 Y106.942 E29.76650
G1 X85.615 Y109.089 E29.84589
G1 X85.610 Y111.643 E29.91821
G1 X85.702 Y112.013 E29.92901
G1 X87.193 Y113.791 E29.99471
G1 X87.468 Y114.065 E30.00570
G1 X90.184 Y114.544 E30.08380
G1 X92.618 Y113.139 E30.16338
G1 X93.578 Y110.500 E30.24289
G1 X92.618 Y107.860 E30.32244
G0 F6000 X92.279 Y108.144
G1 F1800 X90.107 Y106.891 E30.39344
G1 X87.639 Y107.326 E30.46440
G1 X86.030 Y109.241 E30.53523
G1 X86.026 Y111.592 E30.60180
G1 X86.082 Y111.819 E30.60842
G1 X87.500 Y113.510 E30.67091
G1 X87.669 Y113.678 E30.67766
G1 X90.107 Y114.108 E30.74776
G1 X92.279 Y112.855 E30.81876
G1 X93.135 Y110.500 E30.88971
G1 X92.279 Y108.144 E30.96069
G0 F6000 X94.057 Y105.395
G1 F1800 X95.736 Y107.700 E31.04144
G1 X96.334 Y110.502 E31.12257
G1 X95.743 Y113.283 E31.20307
G1 X94.069 Y115.593 E31.28385
G1 X91.597 Y117.023 E31.36472
G1 X88.762 Y117.325 E31.44545
G1 X86.045 Y116.445 E31.52632
G1 X83.926 Y114.539 E31.60702
G1 X82.764 Y111.939 E31.68766
G1 X82.757 Y109.072 E31.76885
G1 X83.916 Y106.470 E31.84950
G1 X86.039 Y104.557 E31.93042
G1 X88.756 Y103.675 E32.01131
G1 X91.594 Y103.973 E32.09211
G1 X94.057 Y105.395 E32.17265
G0 F6000 X94.341 Y105.079
;TYPE:WALL-OUTER
G1 F1800 X96.124 Y107.528 E32.25842
G1 X96.760 Y110.500 E32.34449
G1 X96.132 Y113.456 E32.43006
G1 X94.353 Y115.909 E32.51586
G1 X91.731 Y117.427 E32.60165
G1 X88.716 Y117.747 E32.68750
G1 X85.833 Y116.814 E32.77331
G1 X83.581 Y114.788 E32.85908
G1 X82.348 Y112.029 E32.94465
G1 X82.341 Y108.984 E33.03088
G1 X83.573 Y106.219 E33.11659
G1 X85.826 Y104.188 E33.20248
G1 X88.711 Y103.252 E33.28837
G1 X91.725 Y103.569 E33.37418
G1 X94.341 Y105.079 E33.45971
G0 F6000 X94.140 Y105.317
G0 X92.229 Y108.324
G0 X91.940 Y108.429
G1 F1800 X90.030 Y107.327 E33.52215
G1 X87.860 Y107.709 E33.58454
G1 X86.446 Y109.393 E33.64681
G1 X86.442 Y111.541 E33.70763
G1 X86.463 Y111.625 E33.71008
G1 X87.807 Y113.229 E33.76934
G1 X87.870 Y113.291 E33.77184
G1 X90.030 Y113.672 E33.83395
G1 X91.940 Y112.570 E33.89639
G1 X92.692 Y110.500 E33.95875
G1 X91.940 Y108.429 E34.02114
G0 F6000 X92.917 Y108.074
G1 F1800 E31.02114
G0 F6000 X106.301 Y92.537
;TYPE:WALL-INNER
G1 F1800 E34.02114
G1 X106.242 Y92.406 E34.02521
G1 X106.509 Y92.724 E34.03696
G1 X106.301 Y92.537 E34.04488
G0 F6000 X109.937 Y94.632
G1 F1800 X109.660 Y94.543 E34.05312
G1 X110.082 Y94.617 E34.06525
G1 X109.937 Y94.632 E34.06938
G0 F6000 X115.189 Y91.593
G1 F1800 X115.099 Y91.715 E34.07368
G1 X115.251 Y91.298 E34.08624
G1 X115.189 Y91.593 E34.09478
