;START_OF_HEADER
;HEADER_VERSION:0.1
;FLAVOR:Griffin
;GENERATOR.NAME:Cura_SteamEngine
;GENERATOR.VERSION:4.4.1
;GENERATOR.BUILD_DATE:2019-12-23
;TARGET_MACHINE.NAME:Ultimaker 3
;EXTRUDER_TRAIN.0.INITIAL_TEMPERATURE:210
;EXTRUDER_TRAIN.0.MATERIAL.VOLUME_USED:4372
;EXTRUDER_TRAIN.0.MATERIAL.GUID:506c9f0d-e3aa-4bd4-b2d2-23e2425b1aa9
;EXTRUDER_TRAIN.0.NOZZLE.DIAMETER:0.4
;EXTRUDER_TRAIN.0.NOZZLE.NAME:AA 0.4
;BUILD_PLATE.TYPE:glass
;BUILD_PLATE.INITIAL_TEMPERATURE:60
;PRINT.TIME:1991
;PRINT.GROUPS:1
;PRINT.SIZE.MIN.X:9
;PRINT.SIZE.MIN.Y:6
;PRINT.SIZE.MIN.Z:0.27
;PRINT.SIZE.MAX.X:148.898
;PRINT.SIZE.MAX.Y:131.89
;PRINT.SIZE.MAX.Z:11.27
;END_OF_HEADER
;Generated with Cura_SteamEngine 4.4.1
T0
M82 ;absolute extrusion mode

G92 E0
M109 S210
G0 F15000 X9 Y6 Z2
G280
G1 F1500 E-6.5
;LAYER_COUNT:49
;LAYER:0
M107
M204 S625
M205 X6 Y6
G1 F600 Z2.27
G0 F4285.7 X86.601 Y105.434 Z2.27
M204 S500
M205 X5 Y5
;TYPE:SKIRT
G1 F600 Z0.27
G1 F1500 E0
G1 F1200 X87.224 Y105.027 E0.01323
G1 X87.887 Y104.688 E0.02646
G1 X88.538 Y104.437 E0.03887
G1 X91.5 Y103.464 E0.09429
G1 X92.219 Y103.27 E0.10753
G1 X92.954 Y103.154 E0.12075
G1 X93.698 Y103.118 E0.13399
G1 X94.361 Y103.153 E0.1458
G1 X97.464 Y103.467 E0.20124
G1 X98.199 Y103.582 E0.21446
G1 X98.918 Y103.775 E0.22769
G1 X99.612 Y104.043 E0.24092
G1 X100.212 Y104.35 E0.2529
G1 X102.236 Y105.51 E0.29437
G1 X102.262 Y105.109 E0.30151
G1 X102.279 Y104.982 E0.30379
G1 X102.417 Y104.25 E0.31703
G1 X102.633 Y103.538 E0.33026
G1 X102.816 Y103.085 E0.33894
G1 X104.039 Y100.335 E0.39244
G1 X104.377 Y99.672 E0.40567
G1 X104.785 Y99.049 E0.41891
G1 X105.257 Y98.474 E0.43213
G1 X105.695 Y98.036 E0.44314
G1 X108.025 Y95.906 E0.49926
G1 X108.601 Y95.434 E0.5125
G1 X109.224 Y95.027 E0.52572
G1 X109.887 Y94.688 E0.53896
G1 X110.538 Y94.437 E0.55136
G1 X113.5 Y93.464 E0.60678
G1 X114.219 Y93.27 E0.62002
G1 X114.954 Y93.154 E0.63325
G1 X115.698 Y93.118 E0.64649
G1 X116.361 Y93.153 E0.65829
G1 X119.464 Y93.467 E0.71373
G1 X120.199 Y93.582 E0.72696
G1 X120.918 Y93.775 E0.74019
G1 X121.612 Y94.043 E0.75341
G1 X122.212 Y94.35 E0.76539
G1 X124.916 Y95.9 E0.8208
G1 X125.541 Y96.304 E0.83403
G1 X126.119 Y96.773 E0.84726
G1 X126.644 Y97.301 E0.86049
G1 X127.062 Y97.819 E0.87233
G1 X128.893 Y100.32 E0.92742
G1 X131.5 Y99.464 E0.9762
G1 X132.219 Y99.27 E0.98944
G1 X132.954 Y99.154 E1.00267
G1 X133.698 Y99.118 E1.01591
G1 X134.361 Y99.153 E1.02771
G1 X137.464 Y99.467 E1.08315
G1 X138.199 Y99.582 E1.09637
G1 X138.918 Y99.775 E1.10961
G1 X139.612 Y100.043 E1.12283
G1 X140.212 Y100.35 E1.13481
G1 X142.916 Y101.9 E1.19022
G1 X143.541 Y102.304 E1.20344
G1 X144.119 Y102.773 E1.21668
G1 X144.644 Y103.301 E1.22991
G1 X145.062 Y103.819 E1.24174
G1 X146.904 Y106.336 E1.29719
G1 X147.311 Y106.96 E1.31043
G1 X147.649 Y107.623 E1.32366
G1 X147.913 Y108.319 E1.33689
G1 X148.087 Y108.971 E1.34889
G1 X148.743 Y112.02 E1.40433
G1 X148.86 Y112.755 E1.41756
G1 X148.898 Y113.499 E1.4308
G1 X148.856 Y114.242 E1.44403
G1 X148.752 Y114.893 E1.45575
G1 X148.115 Y117.946 E1.51118
G1 X147.924 Y118.666 E1.52443
G1 X147.657 Y119.361 E1.53766
G1 X147.317 Y120.023 E1.55089
G1 X146.947 Y120.591 E1.56294
G1 X145.12 Y123.118 E1.61837
G1 X144.652 Y123.697 E1.6316
G1 X144.125 Y124.223 E1.64484
G1 X143.544 Y124.688 E1.65807
G1 X142.985 Y125.05 E1.66991
G1 X140.291 Y126.615 E1.72529
G1 X139.628 Y126.954 E1.73853
G1 X138.933 Y127.22 E1.75175
G1 X138.213 Y127.409 E1.76499
G1 X137.558 Y127.512 E1.77677
G1 X134.455 Y127.849 E1.83226
G1 X133.712 Y127.89 E1.84548
G1 X132.969 Y127.851 E1.85871
G1 X132.234 Y127.732 E1.87194
G1 X131.58 Y127.556 E1.88398
G1 X128.612 Y126.599 E1.93942
G1 X127.917 Y126.332 E1.95265
G1 X127.255 Y125.993 E1.96587
G1 X126.632 Y125.585 E1.97911
G1 X126.116 Y125.166 E1.99093
G1 X123.792 Y123.085 E2.04638
G1 X123.265 Y122.559 E2.05961
G1 X122.797 Y121.98 E2.07285
G1 X122.395 Y121.354 E2.08607
G1 X122.092 Y120.759 E2.09794
G1 X122.077 Y120.725 E2.0986
G1 X121.628 Y120.954 E2.10756
G1 X120.933 Y121.22 E2.12079
G1 X120.213 Y121.409 E2.13402
G1 X119.558 Y121.512 E2.14581
G1 X116.455 Y121.849 E2.20129
G1 X115.712 Y121.89 E2.21452
G1 X114.969 Y121.851 E2.22775
G1 X114.234 Y121.732 E2.24098
G1 X113.58 Y121.556 E2.25302
G1 X110.612 Y120.599 E2.30845
G1 X109.917 Y120.332 E2.32169
G1 X109.255 Y119.993 E2.33491
G1 X108.632 Y119.585 E2.34815
G1 X108.611 Y119.568 E2.34863
G1 X108.115 Y121.946 E2.39181
G1 X107.924 Y122.666 E2.40505
G1 X107.657 Y123.361 E2.41829
G1 X107.317 Y124.023 E2.43151
G1 X106.947 Y124.591 E2.44356
G1 X105.12 Y127.118 E2.499
G1 X104.652 Y127.697 E2.51223
G1 X104.125 Y128.223 E2.52546
G1 X103.544 Y128.688 E2.53869
G1 X102.985 Y129.05 E2.55053
G1 X100.291 Y130.615 E2.60591
G1 X99.628 Y130.954 E2.61915
G1 X98.933 Y131.22 E2.63238
G1 X98.213 Y131.409 E2.64561
G1 X97.558 Y131.512 E2.6574
G1 X94.455 Y131.849 E2.71288
G1 X93.712 Y131.89 E2.72611
G1 X92.969 Y131.851 E2.73933
G1 X92.234 Y131.732 E2.75257
G1 X91.58 Y131.556 E2.76461
G1 X88.612 Y130.599 E2.82004
G1 X87.917 Y130.332 E2.83328
G1 X87.255 Y129.993 E2.8465
G1 X86.632 Y129.585 E2.85974
G1 X86.116 Y129.166 E2.87155
G1 X83.792 Y127.085 E2.927
G1 X83.265 Y126.559 E2.94024
G1 X82.797 Y125.98 E2.95347
G1 X82.395 Y125.354 E2.9667
G1 X82.092 Y124.759 E2.97857
G1 X80.825 Y121.935 E3.03359
G1 X80.557 Y121.24 E3.04683
G1 X80.366 Y120.521 E3.06005
G1 X80.252 Y119.785 E3.07329
G1 X80.218 Y119.136 E3.08485
G1 X80.201 Y116.066 E3.13942
G1 X80.262 Y115.109 E3.15646
G1 X80.279 Y114.982 E3.15874
G1 X80.417 Y114.25 E3.17198
G1 X80.633 Y113.538 E3.18521
G1 X80.816 Y113.085 E3.19389
G1 X82.039 Y110.335 E3.24739
G1 X82.377 Y109.672 E3.26062
G1 X82.785 Y109.049 E3.27386
G1 X83.257 Y108.474 E3.28708
G1 X83.695 Y108.036 E3.2981
G1 X86.025 Y105.906 E3.35421
G1 X86.601 Y105.434 E3.36745
M204 S625
M205 X6 Y6
G0 F4285.7 X86.867 Y105.76
M204 S500
M205 X5 Y5
G1 F1200 X87.473 Y105.368 E3.38028
G1 X88.118 Y105.045 E3.3931
G1 X88.669 Y104.836 E3.40358
G1 X91.631 Y103.863 E3.459
G1 X92.328 Y103.676 E3.47183
G1 X93.041 Y103.568 E3.48464
G1 X93.762 Y103.539 E3.49747
G1 X94.318 Y103.571 E3.50737
G1 X97.421 Y103.885 E3.56281
G1 X98.134 Y103.997 E3.57564
G1 X98.83 Y104.188 E3.58847
G1 X99.5 Y104.454 E3.60129
G1 X100.004 Y104.714 E3.61137
G1 X102.622 Y106.215 E3.66501
G1 X102.621 Y106.064 E3.66769
G1 X102.679 Y105.164 E3.68373
G1 X102.696 Y105.037 E3.686
G1 X102.831 Y104.329 E3.69882
G1 X103.043 Y103.639 E3.71165
G1 X103.2 Y103.256 E3.719
G1 X104.423 Y100.506 E3.77251
G1 X104.752 Y99.864 E3.78533
G1 X105.15 Y99.262 E3.79816
G1 X105.612 Y98.708 E3.81098
G1 X105.979 Y98.346 E3.82014
G1 X108.309 Y96.216 E3.87626
G1 X108.867 Y95.76 E3.88907
G1 X109.473 Y95.368 E3.9019
G1 X110.118 Y95.045 E3.91472
G1 X110.669 Y94.836 E3.9252
G1 X113.631 Y93.863 E3.98062
G1 X114.328 Y93.676 E3.99345
G1 X115.041 Y93.568 E4.00626
G1 X115.762 Y93.539 E4.01909
G1 X116.318 Y93.571 E4.02899
G1 X119.421 Y93.885 E4.08443
G1 X120.134 Y93.997 E4.09726
G1 X120.83 Y94.188 E4.11009
G1 X121.5 Y94.454 E4.12291
G1 X122.004 Y94.714 E4.13299
G1 X124.708 Y96.264 E4.18839
G1 X125.313 Y96.657 E4.20121
G1 X125.87 Y97.114 E4.21402
G1 X126.374 Y97.631 E4.22686
G1 X126.723 Y98.067 E4.23678
G1 X128.565 Y100.584 E4.29223
G1 X128.719 Y100.82 E4.29724
G1 X131.631 Y99.863 E4.35172
G1 X132.328 Y99.676 E4.36455
G1 X133.041 Y99.568 E4.37737
G1 X133.762 Y99.539 E4.3902
G1 X134.318 Y99.571 E4.4001
G1 X137.421 Y99.885 E4.45554
G1 X138.134 Y99.997 E4.46837
G1 X138.83 Y100.188 E4.4812
G1 X139.5 Y100.454 E4.49401
G1 X140.004 Y100.714 E4.50409
G1 X142.708 Y102.264 E4.55949
G1 X143.313 Y102.657 E4.57232
G1 X143.87 Y103.114 E4.58513
G1 X144.374 Y103.631 E4.59796
G1 X144.723 Y104.067 E4.60789
G1 X146.565 Y106.584 E4.66333
G1 X146.959 Y107.189 E4.67617
G1 X147.282 Y107.834 E4.68899
G1 X147.533 Y108.51 E4.70181
G1 X147.676 Y109.06 E4.71191
G1 X148.332 Y112.109 E4.76735
G1 X148.445 Y112.821 E4.78016
G1 X148.478 Y113.542 E4.79299
G1 X148.431 Y114.262 E4.80582
G1 X148.341 Y114.808 E4.81566
G1 X147.704 Y117.861 E4.87109
G1 X147.518 Y118.558 E4.88392
G1 X147.255 Y119.23 E4.89675
G1 X146.92 Y119.869 E4.90957
G1 X146.607 Y120.345 E4.9197
G1 X144.78 Y122.872 E4.97513
G1 X144.325 Y123.432 E4.98795
G1 X143.812 Y123.939 E5.00077
G1 X143.245 Y124.386 E5.01361
G1 X142.774 Y124.687 E5.02355
G1 X140.08 Y126.252 E5.07893
G1 X139.437 Y126.579 E5.09175
G1 X138.762 Y126.833 E5.10457
G1 X138.063 Y127.011 E5.11739
G1 X137.513 Y127.095 E5.12728
G1 X134.41 Y127.432 E5.18277
G1 X133.689 Y127.47 E5.1956
G1 X132.969 Y127.428 E5.20842
G1 X132.258 Y127.307 E5.22124
G1 X131.709 Y127.156 E5.23136
G1 X128.741 Y126.199 E5.2868
G1 X128.068 Y125.94 E5.29962
G1 X127.427 Y125.608 E5.31245
G1 X126.828 Y125.207 E5.32526
G1 X126.396 Y124.853 E5.33519
G1 X124.072 Y122.772 E5.39064
G1 X123.562 Y122.262 E5.40346
G1 X123.112 Y121.698 E5.41629
G1 X122.727 Y121.088 E5.42911
G1 X122.475 Y120.587 E5.43908
G1 X122.274 Y120.139 E5.44781
G1 X122.08 Y120.252 E5.4518
G1 X121.437 Y120.579 E5.46462
G1 X120.762 Y120.833 E5.47744
G1 X120.063 Y121.011 E5.49026
G1 X119.513 Y121.095 E5.50015
G1 X116.41 Y121.432 E5.55564
G1 X115.689 Y121.47 E5.56847
G1 X114.969 Y121.428 E5.58129
G1 X114.258 Y121.307 E5.59411
G1 X113.709 Y121.156 E5.60423
G1 X110.741 Y120.199 E5.65967
G1 X110.068 Y119.94 E5.67249
G1 X109.427 Y119.608 E5.68532
G1 X108.828 Y119.207 E5.69813
G1 X108.396 Y118.853 E5.70806
G1 X108.342 Y118.804 E5.70936
G1 X108.341 Y118.808 E5.70943
G1 X107.704 Y121.861 E5.76487
G1 X107.518 Y122.558 E5.77769
G1 X107.255 Y123.23 E5.79052
G1 X106.92 Y123.869 E5.80335
G1 X106.607 Y124.345 E5.81347
G1 X104.78 Y126.872 E5.8689
G1 X104.325 Y127.432 E5.88173
G1 X103.812 Y127.939 E5.89455
G1 X103.245 Y128.386 E5.90738
G1 X102.774 Y128.687 E5.91732
G1 X100.08 Y130.252 E5.9727
G1 X99.437 Y130.579 E5.98553
G1 X98.762 Y130.833 E5.99835
G1 X98.063 Y131.011 E6.01117
G1 X97.513 Y131.095 E6.02106
G1 X94.41 Y131.432 E6.07654
G1 X93.689 Y131.47 E6.08938
G1 X92.969 Y131.428 E6.1022
G1 X92.258 Y131.307 E6.11502
G1 X91.709 Y131.156 E6.12514
G1 X88.741 Y130.199 E6.18057
G1 X88.068 Y129.94 E6.19339
G1 X87.427 Y129.608 E6.20622
G1 X86.828 Y129.207 E6.21904
G1 X86.396 Y128.853 E6.22896
G1 X84.072 Y126.772 E6.28442
G1 X83.562 Y126.262 E6.29724
G1 X83.112 Y125.698 E6.31006
G1 X82.727 Y125.088 E6.32289
G1 X82.475 Y124.587 E6.33286
G1 X81.208 Y121.763 E6.38788
G1 X80.95 Y121.089 E6.4007
G1 X80.768 Y120.391 E6.41353
G1 X80.664 Y119.677 E6.42635
G1 X80.638 Y119.134 E6.43602
G1 X80.621 Y116.064 E6.49059
G1 X80.679 Y115.164 E6.50662
G1 X80.696 Y115.037 E6.5089
G1 X80.831 Y114.329 E6.52171
G1 X81.043 Y113.639 E6.53454
G1 X81.2 Y113.256 E6.5419
G1 X82.423 Y110.506 E6.5954
G1 X82.752 Y109.864 E6.60822
G1 X83.15 Y109.262 E6.62105
G1 X83.612 Y108.708 E6.63387
G1 X83.979 Y108.346 E6.64304
G1 X86.309 Y106.216 E6.69915
G1 X86.867 Y105.76 E6.71196
M204 S625
M205 X6 Y6
G0 F4285.7 X87.133 Y106.086
M204 S500
M205 X5 Y5
G1 F1200 X87.721 Y105.71 E6.72437
G1 X88.348 Y105.404 E6.73677
G1 X88.8 Y105.235 E6.74535
G1 X91.762 Y104.262 E6.80077
G1 X92.437 Y104.083 E6.81318
G1 X93.127 Y103.982 E6.82558
G1 X93.824 Y103.96 E6.83798
G1 X94.276 Y103.989 E6.84603
G1 X97.379 Y104.303 E6.90147
G1 X98.068 Y104.413 E6.91387
G1 X98.74 Y104.601 E6.92628
G1 X99.386 Y104.864 E6.93867
G1 X99.795 Y105.078 E6.94688
G1 X102.499 Y106.628 E7.00228
G1 X103.046 Y106.986 E7.0139
G1 X103.041 Y106.062 E7.03033
G1 X103.095 Y105.22 E7.04533
G1 X103.112 Y105.093 E7.0476
G1 X103.244 Y104.408 E7.06001
G1 X103.583 Y103.426 E7.07847
G1 X104.806 Y100.676 E7.13197
G1 X105.126 Y100.056 E7.14437
G1 X105.514 Y99.476 E7.15678
G1 X105.967 Y98.945 E7.16919
G1 X106.262 Y98.656 E7.17653
G1 X108.592 Y96.526 E7.23264
G1 X109.133 Y96.086 E7.24504
G1 X109.721 Y95.71 E7.25745
G1 X110.348 Y95.404 E7.26985
G1 X110.8 Y95.235 E7.27843
G1 X113.762 Y94.262 E7.33385
G1 X114.437 Y94.083 E7.34626
G1 X115.127 Y93.982 E7.35866
G1 X115.824 Y93.96 E7.37105
G1 X116.276 Y93.989 E7.3791
G1 X119.379 Y94.303 E7.43454
G1 X120.068 Y94.413 E7.44695
G1 X120.74 Y94.601 E7.45935
G1 X121.386 Y94.864 E7.47175
G1 X121.795 Y95.078 E7.47995
G1 X124.499 Y96.628 E7.53536
G1 X125.083 Y97.01 E7.54776
G1 X125.62 Y97.455 E7.56016
G1 X126.103 Y97.959 E7.57257
G1 X126.385 Y98.315 E7.58064
G1 X128.227 Y100.832 E7.63609
G1 X128.548 Y101.329 E7.6466
G1 X128.8 Y101.235 E7.65138
G1 X131.762 Y100.262 E7.7068
G1 X132.437 Y100.083 E7.71922
G1 X133.127 Y99.982 E7.73161
G1 X133.824 Y99.96 E7.74401
G1 X134.276 Y99.989 E7.75206
G1 X137.379 Y100.303 E7.8075
G1 X138.068 Y100.413 E7.8199
G1 X138.74 Y100.601 E7.83231
G1 X139.386 Y100.864 E7.84471
G1 X139.795 Y101.078 E7.85291
G1 X142.499 Y102.628 E7.90832
G1 X143.083 Y103.01 E7.92072
G1 X143.62 Y103.455 E7.93312
G1 X144.103 Y103.959 E7.94553
G1 X144.385 Y104.315 E7.9536
G1 X146.227 Y106.832 E8.00904
G1 X146.606 Y107.418 E8.02145
G1 X146.915 Y108.043 E8.03384
G1 X147.151 Y108.7 E8.04625
G1 X147.266 Y109.148 E8.05447
G1 X147.922 Y112.197 E8.10991
G1 X148.029 Y112.886 E8.12231
G1 X148.057 Y113.584 E8.13473
G1 X148.005 Y114.279 E8.14711
G1 X147.93 Y114.722 E8.1551
G1 X147.293 Y117.775 E8.21054
G1 X147.111 Y118.449 E8.22295
G1 X146.854 Y119.097 E8.23534
G1 X146.524 Y119.712 E8.24775
G1 X146.266 Y120.099 E8.25602
G1 X144.439 Y122.626 E8.31145
G1 X143.999 Y123.167 E8.32384
G1 X143.499 Y123.654 E8.33625
G1 X142.947 Y124.081 E8.34866
G1 X142.563 Y124.324 E8.35673
G1 X139.869 Y125.889 E8.41212
G1 X139.247 Y126.204 E8.42451
G1 X138.592 Y126.446 E8.43692
G1 X137.915 Y126.612 E8.44931
G1 X137.468 Y126.677 E8.45734
G1 X134.365 Y127.014 E8.51283
G1 X133.668 Y127.05 E8.52523
G1 X132.971 Y127.005 E8.53765
G1 X132.285 Y126.882 E8.55004
G1 X131.838 Y126.756 E8.55829
G1 X128.87 Y125.799 E8.61373
G1 X128.219 Y125.547 E8.62613
G1 X127.602 Y125.223 E8.63852
G1 X127.025 Y124.83 E8.65093
G1 X126.676 Y124.54 E8.659
G1 X124.352 Y122.459 E8.71445
G1 X123.86 Y121.964 E8.72686
G1 X123.428 Y121.417 E8.73925
G1 X123.061 Y120.824 E8.75164
G1 X122.859 Y120.415 E8.75975
G1 X122.467 Y119.542 E8.77676
G1 X121.869 Y119.889 E8.78905
G1 X121.247 Y120.204 E8.80145
G1 X120.592 Y120.446 E8.81386
G1 X119.915 Y120.612 E8.82625
G1 X119.468 Y120.677 E8.83428
G1 X116.365 Y121.014 E8.88976
G1 X115.668 Y121.05 E8.90217
G1 X114.971 Y121.005 E8.91459
G1 X114.285 Y120.882 E8.92697
G1 X113.838 Y120.756 E8.93523
G1 X110.87 Y119.799 E8.99066
G1 X110.219 Y119.547 E9.00307
G1 X109.602 Y119.223 E9.01546
G1 X109.025 Y118.83 E9.02787
G1 X108.676 Y118.54 E9.03594
G1 X108.029 Y117.96 E9.05138
G1 X108.005 Y118.279 E9.05707
G1 X107.93 Y118.722 E9.06506
G1 X107.293 Y121.775 E9.12049
G1 X107.111 Y122.449 E9.1329
G1 X106.854 Y123.097 E9.1453
G1 X106.524 Y123.712 E9.1577
G1 X106.266 Y124.099 E9.16597
G1 X104.439 Y126.626 E9.2214
G1 X103.999 Y127.167 E9.2338
G1 X103.499 Y127.654 E9.2462
G1 X102.947 Y128.081 E9.25861
G1 X102.563 Y128.324 E9.26669
G1 X99.869 Y129.889 E9.32207
G1 X99.247 Y130.204 E9.33446
G1 X98.592 Y130.446 E9.34688
G1 X97.915 Y130.612 E9.35927
G1 X97.468 Y130.677 E9.3673
G1 X94.365 Y131.014 E9.42278
G1 X93.668 Y131.05 E9.43519
G1 X92.971 Y131.005 E9.4476
G1 X92.285 Y130.882 E9.45999
G1 X91.838 Y130.756 E9.46825
G1 X88.87 Y129.799 E9.52368
G1 X88.219 Y129.547 E9.53609
G1 X87.602 Y129.223 E9.54848
G1 X87.025 Y128.83 E9.56089
G1 X86.676 Y128.54 E9.56895
G1 X84.352 Y126.459 E9.62441
G1 X83.86 Y125.964 E9.63681
G1 X83.428 Y125.417 E9.6492
G1 X83.061 Y124.824 E9.6616
G1 X82.859 Y124.415 E9.66971
G1 X81.592 Y121.591 E9.72473
G1 X81.343 Y120.939 E9.73713
G1 X81.17 Y120.263 E9.74954
G1 X81.076 Y119.572 E9.76193
G1 X81.058 Y119.132 E9.76976
G1 X81.041 Y116.062 E9.82434
G1 X81.095 Y115.22 E9.83933
G1 X81.112 Y115.093 E9.84161
G1 X81.244 Y114.408 E9.85401
