;START_OF_HEADER
;HEADER_VERSION:0.1
;FLAVOR:Griffin
;GENERATOR.NAME:Cura_SteamEngine
;GENERATOR.VERSION:4.4.1
;GENERATOR.BUILD_DATE:2019-12-23
;TARGET_MACHINE.NAME:Ultimaker 3
;EXTRUDER_TRAIN.0.INITIAL_TEMPERATURE:210
;EXTRUDER_TRAIN.0.MATERIAL.VOLUME_USED:18967
;EXTRUDER_TRAIN.0.MATERIAL.GUID:506c9f0d-e3aa-4bd4-b2d2-23e2425b1aa9
;EXTRUDER_TRAIN.0.NOZZLE.DIAMETER:0.4
;EXTRUDER_TRAIN.0.NOZZLE.NAME:AA 0.4
;BUILD_PLATE.TYPE:glass
;BUILD_PLATE.INITIAL_TEMPERATURE:60
;PRINT.TIME:6054
;PRINT.GROUPS:1
;PRINT.SIZE.MIN.X:9
;PRINT.SIZE.MIN.Y:6
;PRINT.SIZE.MIN.Z:0.27
;PRINT.SIZE.MAX.X:134.93
;PRINT.SIZE.MAX.Y:125.68
;PRINT.SIZE.MAX.Z:79.87
;END_OF_HEADER
;Generated with Cura_SteamEngine 4.4.1
T0
M82 ;absolute extrusion mode

G92 E0
M109 S210
G0 F15000 X9 Y6 Z2
G280
G1 F1500 E-6.5
;LAYER_COUNT:399
;LAYER:0
M107
M204 S625
M205 X6 Y6
G1 F600 Z2.27
G0 F4285.7 X105.943 Y91.532 Z2.27
M204 S500
M205 X5 Y5
;TYPE:SKIRT
G1 F600 Z0.27
G1 F1500 E0
G1 F1200 X106.48 Y91.017 E0.01323
G1 X107.07 Y90.562 E0.02647
G1 X107.704 Y90.174 E0.03968
G1 X108.377 Y89.856 E0.05291
G1 X109.08 Y89.611 E0.06615
G1 X109.805 Y89.444 E0.07937
G1 X110.544 Y89.355 E0.0926
G1 X110.992 Y89.34 E0.10057
G1 X127.881 Y89.32 E0.40079
G1 X128.624 Y89.359 E0.41402
G1 X129.058 Y89.419 E0.42181
G1 X129.169 Y89.438 E0.42381
G1 X129.895 Y89.603 E0.43704
G1 X130.599 Y89.845 E0.45027
G1 X131.273 Y90.161 E0.46351
G1 X131.909 Y90.547 E0.47673
G1 X132.5 Y90.999 E0.48996
G1 X133.04 Y91.512 E0.5032
G1 X133.521 Y92.08 E0.51643
G1 X133.938 Y92.696 E0.52965
G1 X134.287 Y93.354 E0.54289
G1 X134.563 Y94.045 E0.55612
G1 X134.764 Y94.762 E0.56936
G1 X134.887 Y95.496 E0.58258
G1 X134.93 Y96.269 E0.59635
G1 X134.93 Y104.75 E0.7471
G1 X134.89 Y105.493 E0.76033
G1 X134.771 Y106.228 E0.77357
G1 X134.573 Y106.946 E0.78681
G1 X134.3 Y107.638 E0.80003
G1 X134.284 Y107.669 E0.80065
G1 X134.4 Y107.914 E0.80547
G1 X134.646 Y108.617 E0.81871
G1 X134.815 Y109.342 E0.83194
G1 X134.905 Y110.08 E0.84516
G1 X134.921 Y110.542 E0.85337
G1 X134.93 Y118.727 E0.99887
G1 X134.891 Y119.471 E1.01211
G1 X134.772 Y120.205 E1.02533
G1 X134.575 Y120.923 E1.03857
G1 X134.303 Y121.616 E1.0518
G1 X133.957 Y122.275 E1.06503
G1 X133.543 Y122.894 E1.07827
G1 X133.065 Y123.464 E1.09149
G1 X132.529 Y123.98 E1.10472
G1 X131.94 Y124.436 E1.11796
G1 X131.306 Y124.825 E1.13118
G1 X130.634 Y125.145 E1.14441
G1 X129.931 Y125.39 E1.15765
G1 X129.206 Y125.559 E1.17088
G1 X128.468 Y125.649 E1.1841
G1 X128.005 Y125.665 E1.19233
G1 X105.045 Y125.68 E1.60047
G1 X105 Y125.68 E1.60127
G1 X104.257 Y125.64 E1.61449
G1 X103.522 Y125.521 E1.62773
G1 X102.804 Y125.323 E1.64097
G1 X102.112 Y125.05 E1.65419
G1 X101.453 Y124.704 E1.66742
G1 X100.835 Y124.289 E1.68066
G1 X100.265 Y123.81 E1.69389
G1 X99.75 Y123.273 E1.70712
G1 X99.295 Y122.684 E1.72035
G1 X98.906 Y122.05 E1.73357
G1 X98.587 Y121.377 E1.74681
G1 X98.342 Y120.674 E1.76004
G1 X98.174 Y119.949 E1.77327
G1 X98.085 Y119.21 E1.7865
G1 X98.07 Y118.75 E1.79468
G1 X98.07 Y113.759 E1.8834
G1 X98.11 Y113.016 E1.89663
G1 X98.229 Y112.281 E1.90987
G1 X98.427 Y111.563 E1.92311
G1 X98.7 Y110.871 E1.93633
G1 X99.046 Y110.212 E1.94956
G1 X99.461 Y109.594 E1.96279
G1 X99.94 Y109.024 E1.97603
G1 X100.477 Y108.509 E1.98925
G1 X101.066 Y108.054 E2.00248
G1 X101.7 Y107.665 E2.01571
G1 X102.373 Y107.346 E2.02894
G1 X103.076 Y107.101 E2.04218
G1 X103.801 Y106.933 E2.05541
G1 X104.063 Y106.901 E2.0601
G1 X104.07 Y96.266 E2.24915
G1 X104.11 Y95.522 E2.26239
G1 X104.23 Y94.788 E2.27561
G1 X104.428 Y94.07 E2.28885
G1 X104.702 Y93.378 E2.30208
G1 X105.049 Y92.719 E2.31532
G1 X105.464 Y92.102 E2.32854
G1 X105.943 Y91.532 E2.34177
M204 S625
M205 X6 Y6
G0 F4285.7 X106.357 Y91.707
M204 S500
M205 X5 Y5
G1 F1200 X106.89 Y91.221 E2.3546
G1 X107.474 Y90.797 E2.36742
G1 X108.101 Y90.441 E2.38024
G1 X108.764 Y90.156 E2.39307
G1 X109.454 Y89.946 E2.40589
G1 X110.163 Y89.814 E2.41871
G1 X110.992 Y89.76 E2.43348
G1 X127.881 Y89.74 E2.7337
G1 X128.602 Y89.779 E2.74653
G1 X128.987 Y89.833 E2.75344
G1 X129.098 Y89.852 E2.75544
G1 X129.802 Y90.013 E2.76828
G1 X130.483 Y90.251 E2.7811
G1 X131.133 Y90.563 E2.79392
G1 X131.745 Y90.944 E2.80674
G1 X132.312 Y91.391 E2.81957
G1 X132.825 Y91.898 E2.83239
G1 X133.279 Y92.459 E2.84522
G1 X133.668 Y93.066 E2.85804
G1 X133.987 Y93.713 E2.87086
G1 X134.233 Y94.391 E2.88368
G1 X134.403 Y95.093 E2.89652
G1 X134.494 Y95.808 E2.90933
G1 X134.51 Y96.269 E2.91753
G1 X134.51 Y104.75 E3.06829
G1 X134.47 Y105.47 E3.08111
G1 X134.351 Y106.182 E3.09394
G1 X134.153 Y106.876 E3.10677
G1 X133.88 Y107.543 E3.11958
G1 X133.82 Y107.653 E3.12181
G1 X134.1 Y108.302 E3.13437
G1 X134.312 Y108.991 E3.14719
G1 X134.445 Y109.7 E3.16001
G1 X134.501 Y110.543 E3.17503
G1 X134.51 Y118.728 E3.32052
G1 X134.471 Y119.448 E3.33334
G1 X134.352 Y120.16 E3.34617
G1 X134.156 Y120.854 E3.35899
G1 X133.883 Y121.522 E3.37182
G1 X133.539 Y122.156 E3.38464
G1 X133.126 Y122.748 E3.39747
G1 X132.651 Y123.29 E3.41028
G1 X132.118 Y123.777 E3.42312
G1 X131.535 Y124.201 E3.43593
G1 X130.909 Y124.559 E3.44875
G1 X130.247 Y124.845 E3.46157
G1 X129.557 Y125.056 E3.4744
G1 X128.848 Y125.19 E3.48722
G1 X128.004 Y125.245 E3.50226
G1 X105.044 Y125.26 E3.91039
G1 X105 Y125.26 E3.91118
G1 X104.28 Y125.22 E3.92399
G1 X103.568 Y125.101 E3.93683
G1 X102.874 Y124.903 E3.94966
G1 X102.207 Y124.63 E3.96247
G1 X101.573 Y124.285 E3.9753
G1 X100.982 Y123.872 E3.98811
G1 X100.44 Y123.396 E4.00094
G1 X99.954 Y122.863 E4.01376
G1 X99.53 Y122.279 E4.02659
G1 X99.173 Y121.652 E4.03941
G1 X98.887 Y120.99 E4.05223
G1 X98.677 Y120.3 E4.06505
G1 X98.545 Y119.591 E4.07787
G1 X98.49 Y118.75 E4.09285
G1 X98.49 Y113.759 E4.18157
G1 X98.53 Y113.039 E4.19439
G1 X98.649 Y112.327 E4.20722
G1 X98.847 Y111.633 E4.22005
G1 X99.12 Y110.966 E4.23286
G1 X99.465 Y110.332 E4.24569
G1 X99.878 Y109.741 E4.25851
G1 X100.354 Y109.199 E4.27133
G1 X100.887 Y108.713 E4.28416
G1 X101.471 Y108.289 E4.29698
G1 X102.098 Y107.932 E4.30981
G1 X102.76 Y107.646 E4.32263
G1 X103.45 Y107.436 E4.33545
G1 X104.159 Y107.304 E4.34827
G1 X104.483 Y107.283 E4.35404
G1 X104.49 Y96.266 E4.54988
G1 X104.53 Y95.546 E4.5627
G1 X104.65 Y94.834 E4.57553
G1 X104.848 Y94.141 E4.58834
G1 X105.121 Y93.473 E4.60117
G1 X105.467 Y92.84 E4.614
G1 X105.881 Y92.249 E4.62682
G1 X106.357 Y91.707 E4.63964
M204 S625
M205 X6 Y6
G0 F4285.7 X106.77 Y91.888
M204 S500
M205 X5 Y5
G1 F1200 X107.299 Y91.433 E4.65205
G1 X107.877 Y91.042 E4.66445
G1 X108.495 Y90.719 E4.67685
G1 X109.147 Y90.469 E4.68926
G1 X109.822 Y90.295 E4.70165
G1 X110.513 Y90.199 E4.71405
G1 X110.993 Y90.18 E4.72259
G1 X127.882 Y90.16 E5.02281
G1 X128.916 Y90.247 E5.04126
G1 X129.027 Y90.266 E5.04326
G1 X129.707 Y90.423 E5.05566
G1 X130.365 Y90.657 E5.06808
G1 X130.991 Y90.964 E5.08047
G1 X131.578 Y91.341 E5.09287
G1 X132.118 Y91.783 E5.10528
G1 X132.605 Y92.283 E5.11768
G1 X133.03 Y92.836 E5.13008
G1 X133.39 Y93.434 E5.14249
G1 X133.679 Y94.069 E5.15489
G1 X133.893 Y94.733 E5.16729
G1 X134.03 Y95.417 E5.17969
G1 X134.09 Y96.269 E5.19488
G1 X134.09 Y104.75 E5.34563
G1 X134.05 Y105.447 E5.35804
G1 X133.931 Y106.134 E5.37044
G1 X133.733 Y106.803 E5.38284
G1 X133.461 Y107.446 E5.39525
G1 X133.34 Y107.659 E5.39961
G1 X133.537 Y108.034 E5.40714
G1 X133.788 Y108.685 E5.41954
G1 X133.964 Y109.36 E5.43194
G1 X134.061 Y110.051 E5.44434
G1 X134.081 Y110.543 E5.45309
G1 X134.09 Y118.728 E5.59859
G1 X134.051 Y119.425 E5.611
G1 X133.932 Y120.112 E5.62339
G1 X133.736 Y120.782 E5.6358
G1 X133.464 Y121.425 E5.64821
G1 X133.12 Y122.032 E5.66062
G1 X132.71 Y122.596 E5.67301
G1 X132.237 Y123.109 E5.68541
G1 X131.709 Y123.565 E5.69782
G1 X131.132 Y123.958 E5.71023
G1 X130.514 Y124.282 E5.72263
G1 X129.863 Y124.533 E5.73503
G1 X129.188 Y124.708 E5.74743
G1 X128.497 Y124.805 E5.75983
G1 X128.004 Y124.825 E5.7686
G1 X105.044 Y124.84 E6.17674
G1 X105 Y124.84 E6.17752
G1 X104.303 Y124.8 E6.18993
G1 X103.616 Y124.681 E6.20232
G1 X102.947 Y124.483 E6.21473
G1 X102.304 Y124.211 E6.22714
G1 X101.698 Y123.867 E6.23952
G1 X101.134 Y123.455 E6.25194
G1 X100.621 Y122.982 E6.26434
G1 X100.166 Y122.454 E6.27673
G1 X99.774 Y121.877 E6.28913
G1 X99.451 Y121.258 E6.30154
G1 X99.2 Y120.607 E6.31395
G1 X99.026 Y119.931 E6.32636
G1 X98.93 Y119.24 E6.33876
G1 X98.91 Y118.75 E6.34747
G1 X98.91 Y113.759 E6.43619
G1 X98.95 Y113.062 E6.4486
G1 X99.069 Y112.375 E6.461
G1 X99.267 Y111.706 E6.4734
G1 X99.539 Y111.063 E6.48581
G1 X99.883 Y110.457 E6.4982
G1 X100.295 Y109.893 E6.51061
G1 X100.768 Y109.38 E6.52302
G1 X101.296 Y108.925 E6.53541
G1 X101.873 Y108.533 E6.54781
G1 X102.492 Y108.21 E6.56022
G1 X103.143 Y107.959 E6.57262
G1 X103.819 Y107.785 E6.58503
G1 X104.51 Y107.689 E6.59743
G1 X104.903 Y107.673 E6.60442
G1 X104.91 Y96.266 E6.80719
G1 X104.95 Y95.57 E6.81958
G1 X105.07 Y94.882 E6.832
G1 X105.268 Y94.213 E6.8444
G1 X105.541 Y93.571 E6.8568
G1 X105.885 Y92.964 E6.8692
G1 X106.297 Y92.401 E6.88161
G1 X106.77 Y91.888 E6.89401
M204 S625
M205 X6 Y6
G0 F4285.7 X106.713 Y92.559
M204 S500
M205 X5 Y5
G1 F1200 X107.183 Y92.077 E6.90598
G1 X107.707 Y91.655 E6.91794
G1 X108.277 Y91.297 E6.9299
G1 X108.885 Y91.009 E6.94186
G1 X109.524 Y90.796 E6.95383
G1 X110.183 Y90.659 E6.9658
G1 X110.993 Y90.6 E6.98024
G1 X127.882 Y90.58 E7.28045
G1 X128.846 Y90.661 E7.29765
G1 X128.957 Y90.68 E7.29965
G1 X129.612 Y90.833 E7.31161
G1 X130.245 Y91.062 E7.32357
G1 X130.846 Y91.365 E7.33554
G1 X131.408 Y91.737 E7.34752
G1 X131.921 Y92.173 E7.35949
G1 X132.378 Y92.667 E7.37145
G1 X132.775 Y93.211 E7.38342
G1 X133.103 Y93.798 E7.39537
G1 X133.36 Y94.421 E7.40735
G1 X133.542 Y95.069 E7.41932
G1 X133.645 Y95.734 E7.43128
G1 X133.67 Y96.269 E7.4408
G1 X133.67 Y104.75 E7.59156
G1 X133.63 Y105.422 E7.60353
G1 X133.511 Y106.085 E7.6155
G1 X133.314 Y106.728 E7.62745
G1 X133.042 Y107.344 E7.63942
G1 X132.857 Y107.656 E7.64587
G1 X132.959 Y107.817 E7.64926
G1 X133.248 Y108.425 E7.66123
G1 X133.462 Y109.063 E7.67319
G1 X133.6 Y109.722 E7.68516
G1 X133.661 Y110.544 E7.69981
G1 X133.67 Y118.729 E7.8453
G1 X133.631 Y119.401 E7.85727
G1 X133.512 Y120.063 E7.86923
G1 X133.316 Y120.707 E7.88119
G1 X133.045 Y121.324 E7.89317
G1 X132.702 Y121.903 E7.90513
G1 X132.294 Y122.438 E7.91709
G1 X131.824 Y122.921 E7.92907
G1 X131.301 Y123.345 E7.94104
G1 X130.732 Y123.704 E7.953
G1 X130.124 Y123.992 E7.96496
G1 X129.486 Y124.207 E7.97693
G1 X128.827 Y124.344 E7.98889
G1 X128.004 Y124.405 E8.00356
G1 X105.044 Y124.42 E8.4117
G1 X105 Y124.42 E8.41248
G1 X104.328 Y124.38 E8.42445
G1 X103.665 Y124.261 E8.43642
G1 X103.022 Y124.064 E8.44838
G1 X102.406 Y123.792 E8.46035
G1 X101.827 Y123.449 E8.47231
G1 X101.292 Y123.04 E8.48428
G1 X100.81 Y122.57 E8.49625
G1 X100.387 Y122.046 E8.50822
G1 X100.028 Y121.476 E8.52019
G1 X99.74 Y120.868 E8.53215
G1 X99.526 Y120.23 E8.54411
G1 X99.39 Y119.57 E8.55609
G1 X99.33 Y118.75 E8.57071
G1 X99.33 Y113.759 E8.65943
G1 X99.37 Y113.087 E8.67139
G1 X99.489 Y112.424 E8.68337
G1 X99.686 Y111.781 E8.69532
G1 X99.958 Y111.165 E8.70729
G1 X100.301 Y110.586 E8.71926
G1 X100.71 Y110.051 E8.73123
G1 X101.18 Y109.569 E8.74319
G1 X101.704 Y109.146 E8.75516
G1 X102.274 Y108.787 E8.76714
G1 X102.882 Y108.499 E8.7791
G1 X103.52 Y108.285 E8.79106
G1 X104.18 Y108.149 E8.80304
G1 X104.991 Y108.089 E8.81749
G1 X105.323 Y108.089 E8.8234
G1 X105.33 Y96.266 E9.03356
G1 X105.37 Y95.594 E9.04553
G1 X105.49 Y94.932 E9.05749
G1 X105.688 Y94.288 E9.06946
G1 X105.96 Y93.673 E9.08142
G1 X106.303 Y93.094 E9.09338
G1 X106.713 Y92.559 E9.10536
M204 S625
M205 X6 Y6
G0 F4285.7 X107.128 Y92.725
M204 S500
M205 X5 Y5
G1 F1200 X107.594 Y92.275 E9.11688
G1 X108.112 Y91.886 E9.12839
G1 X108.674 Y91.563 E9.13992
G1 X109.271 Y91.313 E9.15142
G1 X109.895 Y91.138 E9.16294
G1 X110.535 Y91.041 E9.17445
G1 X110.994 Y91.02 E9.18261
G1 X127.883 Y91 E9.48283
G1 X128.775 Y91.075 E9.49875
G1 X128.886 Y91.094 E9.50075
G1 X129.516 Y91.243 E9.51226
G1 X130.124 Y91.468 E9.52378
G1 X130.699 Y91.766 E9.53529
G1 X131.233 Y92.132 E9.5468
G1 X131.718 Y92.562 E9.55832
G1 X132.146 Y93.048 E9.56983
G1 X132.511 Y93.583 E9.58135
G1 X132.807 Y94.159 E9.59286
G1 X133.031 Y94.767 E9.60438
G1 X133.177 Y95.398 E9.61589
G1 X133.25 Y96.269 E9.63143
G1 X133.25 Y104.75 E9.78218
G1 X133.21 Y105.397 E9.79371
G1 X133.091 Y106.033 E9.80521
G1 X132.894 Y106.65 E9.81672
G1 X132.623 Y107.239 E9.82825
G1 X132.367 Y107.651 E9.83687
G1 X132.369 Y107.653 E9.83692
G1 X132.693 Y108.214 E9.84844
G1 X132.945 Y108.811 E9.85995
G1 X133.121 Y109.434 E9.87146
G1 X133.219 Y110.075 E9.88299
G1 X133.241 Y110.544 E9.89133
G1 X133.25 Y118.729 E10.03683
G1 X133.211 Y119.376 E10.04835
G1 X133.092 Y120.013 E10.05987
G1 X132.896 Y120.63 E10.07138
G1 X132.625 Y121.219 E10.08291
G1 X132.284 Y121.769 E10.09441
G1 X131.878 Y122.274 E10.10593
G1 X131.413 Y122.724 E10.11743
G1 X130.896 Y123.114 E10.12894
G1 X130.334 Y123.438 E10.14047
G1 X129.737 Y123.689 E10.15199
G1 X129.114 Y123.865 E10.16349
G1 X128.474 Y123.964 E10.175
G1 X128.003 Y123.985 E10.18339
G1 X105.043 Y124 E10.59152
G1 X105 Y124 E10.59229
G1 X104.353 Y123.96 E10.60381
G1 X103.717 Y123.841 E10.61531
G1 X103.1 Y123.644 E10.62682
G1 X102.511 Y123.373 E10.63835
G1 X101.961 Y123.031 E10.64986
G1 X101.457 Y122.624 E10.66138
G1 X101.007 Y122.158 E10.67289
G1 X100.618 Y121.641 E10.68439
G1 X100.295 Y121.079 E10.69592
G1 X100.044 Y120.482 E10.70743
G1 X99.868 Y119.858 E10.71895
G1 X99.771 Y119.218 E10.73046
G1 X99.75 Y118.75 E10.73879
G1 X99.75 Y113.759 E10.82751
G1 X99.79 Y113.112 E10.83903
G1 X99.909 Y112.476 E10.85053
G1 X100.106 Y111.859 E10.86205
G1 X100.377 Y111.27 E10.87357
G1 X100.719 Y110.72 E10.88508
G1 X101.126 Y110.216 E10.8966
G1 X101.592 Y109.766 E10.90811
G1 X102.109 Y109.377 E10.91962
G1 X102.671 Y109.054 E10.93114
G1 X103.268 Y108.803 E10.94265
G1 X103.892 Y108.627 E10.95418
G1 X104.532 Y108.53 E10.96568
G1 X104.992 Y108.509 E10.97387
G1 X105.742 Y108.508 E10.9872
G1 X105.75 Y96.267 E11.2048
G1 X105.79 Y95.62 E11.21632
G1 X105.91 Y94.984 E11.22782
G1 X106.107 Y94.367 E11.23934
G1 X106.379 Y93.778 E11.25087
G1 X106.721 Y93.228 E11.26238
G1 X107.128 Y92.725 E11.27388
M204 S625
M205 X6 Y6
G0 F4285.7 X107.542 Y92.897
M204 S500
M205 X5 Y5
G1 F1200 X108.004 Y92.482 E11.28492
G1 X108.515 Y92.128 E11.29597
G1 X109.067 Y91.844 E11.30701
G1 X109.651 Y91.632 E11.31805
G1 X110.258 Y91.497 E11.32911
G1 X110.994 Y91.44 E11.34223
G1 X127.883 Y91.42 E11.64245
G1 X128.704 Y91.489 E11.65709
G1 X128.815 Y91.508 E11.65909
G1 X129.419 Y91.652 E11.67013
G1 X130 Y91.873 E11.68118
G1 X130.548 Y92.166 E11.69223
G1 X131.054 Y92.527 E11.70328
G1 X131.509 Y92.95 E11.71432
G1 X131.906 Y93.428 E11.72537
G1 X132.238 Y93.952 E11.73639
G1 X132.501 Y94.516 E11.74745
G1 X132.688 Y95.108 E11.75849
G1 X132.799 Y95.719 E11.76953
G1 X132.83 Y96.269 E11.77932
G1 X132.83 Y104.75 E11.93008
G1 X132.79 Y105.37 E11.94112
G1 X132.671 Y105.98 E11.95217
G1 X132.474 Y106.569 E11.96321
G1 X132.204 Y107.128 E11.97425
G1 X131.864 Y107.648 E11.98529
G1 X131.853 Y107.661 E11.98559
G1 X132.128 Y108.057 E11.99416
G1 X132.414 Y108.608 E12.0052
G1 X132.626 Y109.192 E12.01624
G1 X132.762 Y109.798 E12.02728
G1 X132.821 Y110.545 E12.0406
G1 X132.83 Y118.73 E12.1861
G1 X132.791 Y119.35 E12.19714
G1 X132.672 Y119.96 E12.20819
G1 X132.476 Y120.549 E12.21922
G1 X132.206 Y121.109 E12.23028
G1 X131.867 Y121.629 E12.24131
G1 X131.463 Y122.102 E12.25237
G1 X131.003 Y122.518 E12.26339
G1 X130.492 Y122.872 E12.27444
G1 X129.94 Y123.158 E12.28549
G1 X129.357 Y123.371 E12.29653
G1 X128.75 Y123.506 E12.30758
G1 X128.003 Y123.565 E12.3209
G1 X105.043 Y123.58 E12.72904
G1 X105 Y123.58 E12.7298
G1 X104.38 Y123.54 E12.74085
G1 X103.77 Y123.421 E12.75189
