;START_OF_HEADER
;HEADER_VERSION:0.1
;FLAVOR:Griffin
;GENERATOR.NAME:Cura_SteamEngine
;GENERATOR.VERSION:4.4.1
;GENERATOR.BUILD_DATE:2019-12-23
;TARGET_MACHINE.NAME:Ultimaker 3
;EXTRUDER_TRAIN.0.INITIAL_TEMPERATURE:210
;EXTRUDER_TRAIN.0.MATERIAL.VOLUME_USED:16457
;EXTRUDER_TRAIN.0.MATERIAL.GUID:506c9f0d-e3aa-4bd4-b2d2-23e2425b1aa9
;EXTRUDER_TRAIN.0.NOZZLE.DIAMETER:0.4
;EXTRUDER_TRAIN.0.NOZZLE.NAME:AA 0.4
;BUILD_PLATE.TYPE:glass
;BUILD_PLATE.INITIAL_TEMPERATURE:60
;PRINT.TIME:5809
;PRINT.GROUPS:1
;PRINT.SIZE.MIN.X:9
;PRINT.SIZE.MIN.Y:6
;PRINT.SIZE.MIN.Z:0.27
;PRINT.SIZE.MAX.X:135.91
;PRINT.SIZE.MAX.Y:126.854
;PRINT.SIZE.MAX.Z:42.07
;END_OF_HEADER
;Generated with Cura_SteamEngine 4.4.1
T0
M82 ;absolute extrusion mode

G92 E0
M109 S210
G0 F15000 X9 Y6 Z2
G280
G1 F1500 E-6.5
;LAYER_COUNT:210
;LAYER:0
M107
M204 S625
M205 X6 Y6
G1 F600 Z2.27
G0 F4285.7 X68.634 Y93.863 Z2.27
M204 S500
M205 X5 Y5
;TYPE:SKIRT
G1 F600 Z0.27
G1 F1500 E0
G1 F1200 X69.281 Y93.496 E0.01322
G1 X69.963 Y93.199 E0.02645
G1 X70.674 Y92.978 E0.03968
G1 X71.404 Y92.834 E0.05291
G1 X72.376 Y92.766 E0.07023
G1 X97.13 Y92.766 E0.51025
G1 X97.873 Y92.806 E0.52348
G1 X98.608 Y92.925 E0.53672
G1 X99.326 Y93.123 E0.54996
G1 X100.018 Y93.396 E0.56318
G1 X100.677 Y93.742 E0.57641
G1 X101.295 Y94.157 E0.58964
G1 X101.865 Y94.636 E0.60288
G1 X102.004 Y94.781 E0.60645
G1 X105.556 Y91.563 E0.69165
G1 X106.133 Y91.093 E0.70488
G1 X106.758 Y90.689 E0.71811
G1 X107.423 Y90.353 E0.73135
G1 X108.048 Y90.114 E0.74324
G1 X112.986 Y88.494 E0.83562
G1 X113.704 Y88.301 E0.84884
G1 X114.44 Y88.185 E0.86209
G1 X115.183 Y88.149 E0.87531
G1 X115.849 Y88.185 E0.88716
G1 X121.019 Y88.712 E0.97954
G1 X121.754 Y88.827 E0.99277
G1 X122.473 Y89.02 E1.006
G1 X123.167 Y89.29 E1.01924
G1 X123.765 Y89.595 E1.03117
G1 X128.271 Y92.181 E1.12352
G1 X128.896 Y92.586 E1.13676
G1 X129.474 Y93.055 E1.14999
G1 X129.998 Y93.584 E1.16323
G1 X130.418 Y94.104 E1.17511
G1 X133.485 Y98.302 E1.26753
G1 X133.891 Y98.926 E1.28076
G1 X134.228 Y99.589 E1.29398
G1 X134.492 Y100.285 E1.30721
G1 X134.665 Y100.935 E1.31917
G1 X135.756 Y106.015 E1.41153
G1 X135.872 Y106.75 E1.42476
G1 X135.91 Y107.493 E1.43798
G1 X135.867 Y108.236 E1.45121
G1 X135.763 Y108.892 E1.46302
G1 X134.697 Y113.977 E1.55538
G1 X134.505 Y114.696 E1.5686
G1 X134.237 Y115.391 E1.58185
G1 X133.897 Y116.052 E1.59506
G1 X133.53 Y116.615 E1.60701
G1 X130.486 Y120.826 E1.69937
G1 X130.018 Y121.405 E1.7126
G1 X129.491 Y121.93 E1.72583
G1 X128.911 Y122.396 E1.73905
G1 X128.356 Y122.756 E1.75081
G1 X123.933 Y125.33 E1.84178
G1 X122.943 Y125.805 E1.8613
G1 X122.785 Y125.866 E1.86431
G1 X122.077 Y126.096 E1.87754
G1 X121.012 Y126.293 E1.89679
G1 X116.017 Y126.817 E1.98607
G1 X115.166 Y126.854 E2.00121
G1 X115.004 Y126.851 E2.00409
G1 X114.261 Y126.797 E2.01734
G1 X113.529 Y126.664 E2.03056
G1 X112.99 Y126.513 E2.04051
G1 X108.208 Y124.959 E2.12989
G1 X107.519 Y124.693 E2.14302
G1 X107.376 Y124.629 E2.14581
G1 X106.714 Y124.289 E2.15904
G1 X106.092 Y123.88 E2.17227
G1 X105.569 Y123.453 E2.18427
G1 X103.791 Y121.851 E2.22681
G1 X103.57 Y122.422 E2.2377
G1 X103.228 Y123.083 E2.25093
G1 X102.818 Y123.703 E2.26414
G1 X102.153 Y124.473 E2.28222
G1 X102.03 Y124.596 E2.28532
G1 X101.476 Y125.094 E2.29856
G1 X100.872 Y125.529 E2.31179
G1 X100.225 Y125.896 E2.32501
G1 X99.543 Y126.193 E2.33823
G1 X98.832 Y126.414 E2.35147
G1 X98.102 Y126.558 E2.3647
G1 X97.13 Y126.626 E2.38202
G1 X72.376 Y126.626 E2.82204
G1 X71.633 Y126.586 E2.83527
G1 X70.898 Y126.467 E2.84851
G1 X70.18 Y126.269 E2.86175
G1 X69.488 Y125.996 E2.87497
G1 X68.829 Y125.65 E2.8882
G1 X68.211 Y125.235 E2.90143
G1 X67.476 Y124.596 E2.91874
G1 X67.353 Y124.473 E2.92184
G1 X66.855 Y123.919 E2.93508
G1 X66.42 Y123.315 E2.94831
G1 X66.053 Y122.668 E2.96153
G1 X65.756 Y121.986 E2.97476
G1 X65.535 Y121.275 E2.98799
G1 X65.391 Y120.545 E3.00122
G1 X65.323 Y119.573 E3.01854
G1 X65.323 Y99.819 E3.36968
G1 X65.363 Y99.076 E3.38291
G1 X65.482 Y98.341 E3.39615
G1 X65.68 Y97.623 E3.40939
G1 X65.953 Y96.931 E3.42261
G1 X66.299 Y96.272 E3.43584
G1 X66.714 Y95.654 E3.44907
G1 X67.353 Y94.919 E3.46639
G1 X67.476 Y94.796 E3.46948
G1 X68.03 Y94.298 E3.48272
G1 X68.634 Y93.863 E3.49595
M204 S625
M205 X6 Y6
G0 F4285.7 X68.898 Y94.193
M204 S500
M205 X5 Y5
G1 F1200 X69.528 Y93.842 E3.50877
G1 X70.193 Y93.563 E3.52159
G1 X70.885 Y93.359 E3.53441
G1 X71.595 Y93.233 E3.54723
G1 X72.376 Y93.186 E3.56114
G1 X97.13 Y93.186 E4.00117
G1 X97.85 Y93.226 E4.01399
G1 X98.562 Y93.345 E4.02682
G1 X99.256 Y93.543 E4.03965
G1 X99.923 Y93.816 E4.05246
G1 X100.557 Y94.161 E4.06529
G1 X101.148 Y94.574 E4.0781
G1 X101.69 Y95.05 E4.09093
G1 X101.98 Y95.369 E4.09859
G1 X101.985 Y95.364 E4.09872
G1 X105.838 Y91.874 E4.19113
G1 X106.398 Y91.42 E4.20394
G1 X107.006 Y91.031 E4.21677
G1 X107.653 Y90.712 E4.2296
G1 X108.179 Y90.513 E4.23959
G1 X113.117 Y88.893 E4.33197
G1 X113.814 Y88.707 E4.3448
G1 X114.527 Y88.599 E4.35762
G1 X115.248 Y88.57 E4.37044
G1 X115.806 Y88.603 E4.38038
G1 X120.976 Y89.13 E4.47276
G1 X121.689 Y89.242 E4.48559
G1 X122.384 Y89.433 E4.4984
G1 X123.055 Y89.7 E4.51124
G1 X123.556 Y89.96 E4.52127
G1 X128.062 Y92.546 E4.61362
G1 X128.667 Y92.939 E4.62645
G1 X129.225 Y93.397 E4.63928
G1 X129.728 Y93.913 E4.65209
G1 X130.079 Y94.352 E4.66208
G1 X133.146 Y98.55 E4.7545
G1 X133.538 Y99.155 E4.76731
G1 X133.861 Y99.8 E4.78013
G1 X134.111 Y100.476 E4.79295
G1 X134.254 Y101.023 E4.803
G1 X135.345 Y106.103 E4.89536
G1 X135.457 Y106.816 E4.90819
G1 X135.49 Y107.536 E4.921
G1 X135.442 Y108.256 E4.93383
G1 X135.352 Y108.806 E4.94373
G1 X134.286 Y113.891 E5.03609
G1 X134.099 Y114.587 E5.0489
G1 X133.836 Y115.259 E5.06173
G1 X133.5 Y115.898 E5.07456
G1 X133.19 Y116.369 E5.08458
G1 X130.146 Y120.58 E5.17695
G1 X129.692 Y121.14 E5.18976
G1 X129.178 Y121.647 E5.2026
G1 X128.612 Y122.093 E5.21541
G1 X128.144 Y122.393 E5.22529
G1 X123.721 Y124.967 E5.31626
G1 X122.792 Y125.413 E5.33457
G1 X122.634 Y125.474 E5.33758
G1 X121.947 Y125.696 E5.35042
G1 X120.968 Y125.875 E5.36811
G1 X115.973 Y126.399 E5.45739
G1 X115.173 Y126.434 E5.47162
G1 X115.011 Y126.431 E5.4745
G1 X114.292 Y126.378 E5.48732
G1 X113.583 Y126.245 E5.50014
G1 X113.12 Y126.113 E5.5087
G1 X108.338 Y124.559 E5.59808
G1 X107.691 Y124.31 E5.6104
G1 X107.548 Y124.246 E5.61319
G1 X106.907 Y123.915 E5.62601
G1 X106.306 Y123.516 E5.63884
G1 X105.85 Y123.141 E5.64933
G1 X103.577 Y121.093 E5.70372
G1 X103.419 Y121.66 E5.71418
G1 X103.15 Y122.33 E5.72701
G1 X102.809 Y122.965 E5.73983
G1 X102.4 Y123.559 E5.75265
G1 X101.856 Y124.176 E5.76727
G1 X101.733 Y124.299 E5.77036
G1 X101.196 Y124.78 E5.78318
G1 X100.608 Y125.199 E5.79601
G1 X99.978 Y125.55 E5.80883
G1 X99.313 Y125.829 E5.82165
G1 X98.621 Y126.033 E5.83447
G1 X97.911 Y126.159 E5.84729
G1 X97.13 Y126.206 E5.8612
G1 X72.376 Y126.206 E6.30123
G1 X71.656 Y126.166 E6.31404
G1 X70.944 Y126.047 E6.32688
G1 X70.25 Y125.849 E6.3397
G1 X69.583 Y125.576 E6.35252
G1 X68.949 Y125.231 E6.36535
G1 X68.358 Y124.818 E6.37816
G1 X67.773 Y124.299 E6.39206
G1 X67.65 Y124.176 E6.39516
G1 X67.169 Y123.639 E6.40797
G1 X66.75 Y123.051 E6.42081
G1 X66.399 Y122.421 E6.43363
G1 X66.12 Y121.756 E6.44645
G1 X65.916 Y121.064 E6.45927
G1 X65.79 Y120.354 E6.47209
G1 X65.743 Y119.573 E6.486
G1 X65.743 Y99.819 E6.83714
G1 X65.783 Y99.099 E6.84996
G1 X65.902 Y98.387 E6.86279
G1 X66.1 Y97.693 E6.87562
G1 X66.373 Y97.026 E6.88843
G1 X66.718 Y96.392 E6.90126
G1 X67.131 Y95.801 E6.91408
G1 X67.65 Y95.216 E6.92798
G1 X67.773 Y95.093 E6.93107
G1 X68.31 Y94.612 E6.94389
G1 X68.898 Y94.193 E6.95672
M204 S625
M205 X6 Y6
G0 F4285.7 X69.161 Y94.524
M204 S500
M205 X5 Y5
G1 F1200 X69.774 Y94.19 E6.96913
G1 X70.421 Y93.928 E6.98154
G1 X71.093 Y93.743 E6.99393
G1 X71.782 Y93.635 E7.00633
G1 X72.376 Y93.606 E7.0169
G1 X97.13 Y93.606 E7.45693
G1 X97.827 Y93.646 E7.46934
G1 X98.514 Y93.765 E7.48173
G1 X99.183 Y93.963 E7.49413
G1 X99.826 Y94.235 E7.50654
G1 X100.432 Y94.579 E7.51893
G1 X100.996 Y94.991 E7.53135
G1 X101.509 Y95.464 E7.54375
G1 X101.954 Y95.98 E7.55586
G1 X102.267 Y95.675 E7.56363
G1 X106.12 Y92.185 E7.65604
G1 X106.663 Y91.747 E7.66844
G1 X107.252 Y91.374 E7.68083
G1 X107.881 Y91.071 E7.69325
G1 X108.31 Y90.912 E7.70138
G1 X113.248 Y89.292 E7.79376
G1 X113.922 Y89.113 E7.80616
G1 X114.612 Y89.012 E7.81855
G1 X115.31 Y88.991 E7.83096
G1 X115.764 Y89.02 E7.83905
G1 X120.934 Y89.547 E7.93143
G1 X121.623 Y89.658 E7.94384
G1 X122.294 Y89.846 E7.95622
G1 X122.94 Y90.11 E7.96863
G1 X123.347 Y90.324 E7.9768
G1 X127.853 Y92.91 E8.06915
G1 X128.438 Y93.291 E8.08156
G1 X128.974 Y93.737 E8.09396
G1 X129.457 Y94.241 E8.10637
G1 X129.739 Y94.599 E8.11447
G1 X132.806 Y98.797 E8.20689
G1 X133.185 Y99.383 E8.21929
G1 X133.494 Y100.009 E8.2317
G1 X133.73 Y100.666 E8.24411
G1 X133.843 Y101.111 E8.25227
G1 X134.934 Y106.191 E8.34463
G1 X135.041 Y106.881 E8.35704
G1 X135.069 Y107.578 E8.36944
G1 X135.017 Y108.274 E8.38185
G1 X134.94 Y108.72 E8.3899
G1 X133.874 Y113.805 E8.48225
G1 X133.692 Y114.478 E8.49465
G1 X133.435 Y115.126 E8.50704
G1 X133.104 Y115.741 E8.51945
G1 X132.85 Y116.123 E8.52761
G1 X129.806 Y120.334 E8.61997
G1 X129.365 Y120.875 E8.63238
G1 X128.866 Y121.362 E8.64477
G1 X128.314 Y121.789 E8.65718
G1 X127.933 Y122.03 E8.66519
G1 X123.51 Y124.604 E8.75616
G1 X122.64 Y125.021 E8.77331
G1 X122.482 Y125.082 E8.77632
G1 X121.818 Y125.296 E8.78872
G1 X120.924 Y125.458 E8.80487
G1 X115.929 Y125.982 E8.89415
G1 X115.181 Y126.014 E8.90746
G1 X115.019 Y126.011 E8.91034
G1 X114.324 Y125.958 E8.92273
G1 X113.638 Y125.826 E8.93515
G1 X113.25 Y125.714 E8.94233
G1 X108.468 Y124.16 E9.03171
G1 X107.862 Y123.927 E9.04325
G1 X107.719 Y123.863 E9.04603
G1 X107.1 Y123.542 E9.05843
G1 X106.521 Y123.152 E9.07084
G1 X106.131 Y122.829 E9.07984
G1 X103.299 Y120.278 E9.14759
G1 X103.192 Y120.92 E9.15916
G1 X102.999 Y121.591 E9.17157
G1 X102.731 Y122.235 E9.18397
G1 X102.39 Y122.844 E9.19638
G1 X101.982 Y123.41 E9.20878
G1 X101.559 Y123.879 E9.22001
G1 X101.436 Y124.002 E9.2231
G1 X100.915 Y124.467 E9.23551
G1 X100.345 Y124.868 E9.2479
G1 X99.732 Y125.202 E9.26031
G1 X99.085 Y125.464 E9.27272
G1 X98.413 Y125.649 E9.28511
G1 X97.724 Y125.757 E9.29751
G1 X97.13 Y125.786 E9.30808
G1 X72.376 Y125.786 E9.7481
G1 X71.679 Y125.746 E9.76051
G1 X70.992 Y125.627 E9.77291
G1 X70.323 Y125.429 E9.78531
G1 X69.68 Y125.157 E9.79772
G1 X69.074 Y124.813 E9.81011
G1 X68.51 Y124.401 E9.82252
G1 X68.07 Y124.002 E9.83308
G1 X67.947 Y123.879 E9.83617
G1 X67.482 Y123.358 E9.84859
G1 X67.081 Y122.788 E9.86098
G1 X66.747 Y122.175 E9.87339
G1 X66.485 Y121.528 E9.88579
G1 X66.3 Y120.856 E9.89818
G1 X66.192 Y120.167 E9.91058
G1 X66.163 Y119.573 E9.92115
G1 X66.163 Y99.819 E10.2723
G1 X66.203 Y99.122 E10.28471
G1 X66.322 Y98.435 E10.2971
G1 X66.52 Y97.766 E10.30951
G1 X66.792 Y97.123 E10.32192
G1 X67.136 Y96.517 E10.3343
G1 X67.548 Y95.953 E10.34672
G1 X67.947 Y95.513 E10.35728
G1 X68.07 Y95.39 E10.36037
G1 X68.591 Y94.925 E10.37278
G1 X69.161 Y94.524 E10.38517
M204 S625
M205 X6 Y6
G0 F4285.7 X69.423 Y94.856
M204 S500
M205 X5 Y5
G1 F1200 X70.018 Y94.54 E10.39715
G1 X70.645 Y94.297 E10.4091
G1 X71.297 Y94.13 E10.42106
G1 X71.965 Y94.041 E10.43304
G1 X72.376 Y94.026 E10.44035
G1 X97.13 Y94.026 E10.88038
G1 X97.802 Y94.066 E10.89235
G1 X98.465 Y94.185 E10.90432
G1 X99.108 Y94.382 E10.91628
G1 X99.724 Y94.654 E10.92825
G1 X100.303 Y94.997 E10.94021
G1 X100.838 Y95.406 E10.95218
G1 X101.32 Y95.876 E10.96415
G1 X101.743 Y96.4 E10.97612
G1 X101.914 Y96.671 E10.98181
G1 X102.294 Y96.232 E10.99213
G1 X102.549 Y95.987 E10.99842
G1 X106.402 Y92.497 E11.09083
G1 X106.926 Y92.075 E11.10279
G1 X107.498 Y91.719 E11.11477
G1 X108.107 Y91.433 E11.12673
G1 X108.441 Y91.312 E11.13304
G1 X113.379 Y89.692 E11.22542
G1 X114.03 Y89.52 E11.23739
G1 X114.696 Y89.427 E11.24935
G1 X115.369 Y89.413 E11.26131
G1 X115.721 Y89.438 E11.26758
G1 X120.891 Y89.965 E11.35996
G1 X121.555 Y90.073 E11.37192
G1 X122.203 Y90.259 E11.3839
G1 X122.823 Y90.52 E11.39586
G1 X123.138 Y90.688 E11.40221
G1 X127.644 Y93.274 E11.49456
G1 X128.207 Y93.643 E11.50653
G1 X128.722 Y94.077 E11.5185
G1 X129.183 Y94.568 E11.53047
G1 X129.4 Y94.847 E11.53675
G1 X132.467 Y99.045 E11.62917
G1 X132.831 Y99.611 E11.64113
G1 X133.126 Y100.217 E11.65311
G1 X133.347 Y100.853 E11.66508
G1 X133.433 Y101.199 E11.67142
G1 X134.524 Y106.279 E11.76378
G1 X134.626 Y106.945 E11.77576
G1 X134.648 Y107.618 E11.78773
G1 X134.591 Y108.288 E11.79968
G1 X134.529 Y108.633 E11.80591
G1 X133.463 Y113.718 E11.89827
G1 X133.286 Y114.368 E11.91024
G1 X133.034 Y114.992 E11.9222
G1 X132.709 Y115.581 E11.93416
G1 X132.509 Y115.877 E11.94051
G1 X129.465 Y120.088 E12.03288
G1 X129.039 Y120.609 E12.04484
G1 X128.554 Y121.076 E12.05681
G1 X128.017 Y121.482 E12.06878
G1 X127.722 Y121.667 E12.07497
G1 X123.299 Y124.241 E12.16593
G1 X122.489 Y124.629 E12.1819
G1 X122.331 Y124.69 E12.18491
G1 X121.69 Y124.895 E12.19687
G1 X120.881 Y125.04 E12.21148
G1 X115.886 Y125.564 E12.30076
G1 X115.189 Y125.594 E12.31316
G1 X115.027 Y125.591 E12.31604
G1 X114.356 Y125.539 E12.328
G1 X113.38 Y125.314 E12.34581
G1 X108.598 Y123.76 E12.43519
G1 X108.034 Y123.543 E12.44593
G1 X107.891 Y123.479 E12.44872
G1 X107.294 Y123.168 E12.46068
G1 X106.738 Y122.789 E12.47264
G1 X106.412 Y122.517 E12.48019
G1 X102.922 Y119.373 E12.56369
G1 X102.923 Y119.538 E12.56662
G1 X102.887 Y120.21 E12.57859
G1 X102.772 Y120.873 E12.59055
G1 X102.579 Y121.518 E12.60252
G1 X102.311 Y122.136 E12.61449
G1 X101.971 Y122.717 E12.62646
G1 X101.565 Y123.254 E12.63842
G1 X101.262 Y123.582 E12.64636
G1 X101.139 Y123.705 E12.64945
G1 X100.636 Y124.152 E12.66141
G1 X100.083 Y124.536 E12.67338
G1 X99.488 Y124.852 E12.68536
G1 X98.861 Y125.095 E12.69731
G1 X98.209 Y125.262 E12.70927
G1 X97.541 Y125.351 E12.72125
G1 X97.13 Y125.366 E12.72857
G1 X72.376 Y125.366 E13.16859
G1 X71.704 Y125.326 E13.18056
G1 X71.041 Y125.207 E13.19253
G1 X70.398 Y125.01 E13.20449
G1 X69.782 Y124.738 E13.21646
G1 X69.203 Y124.395 E13.22842
G1 X68.668 Y123.986 E13.24039
G1 X68.367 Y123.705 E13.24771
G1 X68.244 Y123.582 E13.2508
G1 X67.797 Y123.079 E13.26276
G1 X67.413 Y122.526 E13.27473
G1 X67.097 Y121.931 E13.28671
G1 X66.854 Y121.304 E13.29866
G1 X66.687 Y120.652 E13.31062
G1 X66.598 Y119.984 E13.3226
G1 X66.583 Y119.573 E13.32991
G1 X66.583 Y99.819 E13.68106
G1 X66.623 Y99.147 E13.69303
G1 X66.742 Y98.484 E13.705
G1 X66.939 Y97.841 E13.71696
G1 X67.211 Y97.225 E13.72893
G1 X67.554 Y96.646 E13.74089
G1 X67.963 Y96.111 E13.75286
G1 X68.244 Y95.81 E13.76018
G1 X68.367 Y95.687 E13.76327
G1 X68.87 Y95.24 E13.77523
G1 X69.423 Y94.856 E13.7872
M204 S625
M205 X6 Y6
G0 F4285.7 X69.684 Y95.189
M204 S500
M205 X5 Y5
G1 F1200 X70.259 Y94.892 E13.7987
G1 X70.867 Y94.668 E13.81022
G1 X71.498 Y94.52 E13.82174
G1 X72.376 Y94.446 E13.83741
G1 X97.13 Y94.446 E14.27743
G1 X97.777 Y94.486 E14.28896
G1 X98.413 Y94.605 E14.30046
G1 X99.03 Y94.802 E14.31197
G1 X99.619 Y95.073 E14.3235
G1 X100.169 Y95.415 E14.33501
G1 X100.673 Y95.822 E14.34652
G1 X101.123 Y96.288 E14.35804
G1 X101.512 Y96.805 E14.36954
G1 X101.835 Y97.367 E14.38106
G1 X101.874 Y97.459 E14.38284
G1 X102.217 Y96.958 E14.39363
G1 X102.831 Y96.298 E14.40966
G1 X106.684 Y92.808 E14.50207
G1 X107.19 Y92.404 E14.51358
G1 X107.741 Y92.064 E14.52509
G1 X108.571 Y91.711 E14.54112
G1 X113.509 Y90.091 E14.6335
G1 X114.136 Y89.927 E14.64502
G1 X114.778 Y89.842 E14.65653
G1 X115.678 Y89.856 E14.67253
G1 X120.848 Y90.383 E14.76491
G1 X121.488 Y90.488 E14.77644
G1 X122.109 Y90.672 E14.78795
G1 X122.929 Y91.053 E14.80403
G1 X127.435 Y93.639 E14.89638
G1 X127.976 Y93.995 E14.90789
G1 X128.469 Y94.415 E14.9194
