;Generated with Cura_SteamEngine 15.01
; Default start code
G28 ; Home extruder
G1 Z15 F100
M107 ; Turn off fan
G90 ; Absolute positioning
M82 ; Extruder in absolute mode
M190 S50
; Activate all used extruder
M104 T0 S210
G92 E0 ; Reset extruder position
; Wait for all used extruders to reach temperature
M109 T0 S210
;Layer count: 400
;LAYER:0
M107
G0 F6000 X89.461 Y83.720 Z0.150
;TYPE:SKIRT
G1 F1800 X111.458 Y83.710 E0.62287
G1 X116.540 Y83.710 E0.76677
G1 X116.540 Y102.266 E1.29221
G1 X116.536 Y102.266 E1.29232
G1 X116.542 Y116.283 E1.68923
G1 X88.516 Y116.290 E2.48282
G1 X83.460 Y116.290 E2.62598
G1 X83.460 Y101.217 E3.05279
G1 X89.457 Y101.213 E3.22260
G1 X89.461 Y83.720 E3.71794
G0 F6000 X89.877 Y84.136
G1 F1800 X111.458 Y84.126 E4.32903
G1 X116.124 Y84.126 E4.46115
G1 X116.124 Y101.851 E4.96306
G1 X116.120 Y101.851 E4.96317
G1 X116.126 Y115.867 E5.36005
G1 X88.516 Y115.874 E6.14186
G1 X83.876 Y115.874 E6.27324
G1 X83.876 Y101.633 E6.67649
G1 X89.873 Y101.629 E6.84631
G1 X89.877 Y84.136 E7.34164
G0 F6000 X90.293 Y84.552
G1 F1800 X111.458 Y84.542 E7.94095
G1 X115.708 Y84.542 E8.06129
G1 X115.708 Y101.436 E8.53967
G1 X115.703 Y101.436 E8.53981
G1 X115.710 Y115.451 E8.93666
G1 X88.516 Y115.458 E9.70669
G1 X84.292 Y115.458 E9.82630
G1 X84.292 Y102.049 E10.20599
G1 X90.289 Y102.045 E10.37580
G1 X90.293 Y84.552 E10.87113
G1 F1800 E7.87113
G0 F6000 X96.787 Y91.045
;TYPE:WALL-INNER
G1 F1800 E10.87113
G1 X109.212 Y91.039 E11.22296
G1 X109.212 Y94.955 E11.33385
G1 X108.789 Y94.956 E11.34583
G1 X108.785 Y91.467 E11.44462
G1 X100.216 Y91.460 E11.68726
G1 X100.211 Y108.825 E12.17897
G1 X108.783 Y108.843 E12.42170
G1 X108.786 Y105.340 E12.52089
G1 X109.209 Y105.339 E12.53287
G1 X109.211 Y108.957 E12.63532
G1 X90.788 Y108.961 E13.15698
G1 X90.788 Y108.540 E13.16890
G1 X96.783 Y108.536 E13.33866
G1 X96.787 Y91.045 E13.83394
G0 F6000 X96.372 Y90.629
G1 F1800 X109.628 Y90.623 E14.20930
G1 X109.628 Y95.370 E14.34371
G1 X108.374 Y95.373 E14.37922
G1 X108.370 Y91.882 E14.47807
G1 X100.631 Y91.877 E14.69721
G1 X100.628 Y108.410 E15.16536
G1 X108.367 Y108.426 E15.38450
G1 X108.370 Y104.924 E15.48367
G1 X109.625 Y104.923 E15.51920
G1 X109.627 Y109.372 E15.64518
G1 X90.372 Y109.378 E16.19041
G1 X90.372 Y108.125 E16.22589
G1 X96.368 Y108.121 E16.39567
G1 X96.372 Y90.629 E16.89098
G0 F6000 X95.956 Y90.213
G1 F1800 X110.044 Y90.207 E17.28990
G1 X110.044 Y95.785 E17.44784
G1 X107.958 Y95.790 E17.50691
G1 X107.954 Y92.298 E17.60579
G1 X101.047 Y92.293 E17.80137
G1 X101.044 Y107.995 E18.24599
G1 X107.952 Y108.009 E18.44160
G1 X107.955 Y104.508 E18.54073
G1 X110.041 Y104.507 E18.59980
G1 X110.043 Y109.788 E18.74934
G1 X89.956 Y109.794 E19.31813
G1 X89.956 Y107.709 E19.37716
G1 X95.952 Y107.705 E19.54695
G1 X95.956 Y90.213 E20.04225
G0 F6000 X95.540 Y89.798
G1 F1800 X110.460 Y89.790 E20.46473
G1 X110.460 Y96.200 E20.64624
G1 X107.543 Y96.207 E20.72884
G1 X107.539 Y92.714 E20.82774
G1 X101.463 Y92.709 E20.99979
G1 X101.460 Y107.580 E21.42088
G1 X107.536 Y107.592 E21.59293
G1 X107.539 Y104.092 E21.69204
G1 X110.457 Y104.091 E21.77466
G1 X110.459 Y110.204 E21.94776
G1 X89.540 Y110.210 E22.54011
G1 X89.540 Y107.293 E22.62270
G1 X95.536 Y107.289 E22.79249
G1 X95.540 Y89.798 E23.28777
G0 F6000 X95.124 Y89.382
G1 F1800 X110.876 Y89.374 E23.73380
G1 X110.876 Y96.615 E23.93884
G1 X107.127 Y96.625 E24.04500
G1 X107.123 Y93.129 E24.14399
G1 X101.879 Y93.126 E24.29248
G1 X101.876 Y107.165 E24.69001
G1 X107.120 Y107.175 E24.83850
G1 X107.123 Y103.677 E24.93755
G1 X110.872 Y103.674 E25.04371
G1 X110.876 Y110.620 E25.24039
G1 X89.124 Y110.626 E25.85632
G1 X89.124 Y106.878 E25.96245
G1 X95.120 Y106.874 E26.13224
G1 X95.124 Y89.382 E26.62754
G0 F6000 X94.708 Y88.966
;TYPE:WALL-OUTER
G1 F1800 X111.292 Y88.958 E27.09714
G1 X111.292 Y97.030 E27.32571
G1 X106.712 Y97.042 E27.45539
G1 X106.708 Y93.545 E27.55442
G1 X102.295 Y93.542 E27.67937
G1 X102.292 Y106.750 E28.05337
G1 X106.705 Y106.758 E28.17833
G1 X106.708 Y103.261 E28.27736
G1 X111.288 Y103.258 E28.40704
G1 X111.292 Y111.036 E28.62729
G1 X88.708 Y111.042 E29.26678
G1 X88.708 Y106.462 E29.39647
G1 X94.704 Y106.458 E29.56625
G1 X94.708 Y88.966 E30.06156
G0 F6000 X95.015 Y89.184
G0 X101.943 Y107.098
G0 X107.054 Y107.108
G0 X108.931 Y105.986
;TYPE:FILL
G1 F1800 X109.062 Y106.118 E30.06682
G0 F6000 X108.929 Y107.163
G1 F1800 X109.063 Y107.297 E30.07219
G0 F6000 X108.928 Y108.340
G1 F1800 X109.064 Y108.475 E30.07761
G0 F6000 X100.066 Y108.596
;TYPE:SKIN
G1 F1800 X96.928 Y105.459 E30.20326
G0 F6000 X96.928 Y106.047
G1 F1800 X99.693 Y108.812 E30.31398
G0 F6000 X99.105 Y108.812
G1 F1800 X96.928 Y106.635 E30.40116
G0 F6000 X96.928 Y107.224
G1 F1800 X98.516 Y108.812 E30.46475
G0 F6000 X97.928 Y108.812
G1 F1800 X96.928 Y107.812 E30.50479
G0 F6000 X96.928 Y108.400
G1 F1800 X97.046 Y108.812 E30.52128
G1 X96.392 Y108.746 E30.52651
G1 X95.803 Y108.746 E30.53172
G1 X95.216 Y108.747 E30.53688
G1 X94.628 Y108.748 E30.54204
G1 X94.040 Y108.748 E30.54720
G1 X93.451 Y108.748 E30.55238
G1 X92.863 Y108.748 E30.55754
G1 X92.275 Y108.748 E30.56266
G1 X91.687 Y108.749 E30.56778
G1 X91.329 Y108.685 E30.57808
G0 F6000 X95.053 Y106.807
G0 X96.929 Y104.871
G1 F1800 X100.066 Y108.008 E30.70370
G0 F6000 X100.066 Y107.420
G1 F1800 X96.929 Y104.283 E30.82933
G0 F6000 X96.929 Y103.695
G1 F1800 X100.066 Y106.831 E30.95493
G0 F6000 X100.066 Y106.243
G1 F1800 X96.929 Y103.106 E31.08055
G0 F6000 X96.929 Y102.518
G1 F1800 X100.066 Y105.655 E31.20617
G0 F6000 X100.066 Y105.067
G1 F1800 X96.929 Y101.930 E31.33179
G0 F6000 X96.930 Y101.342
G1 F1800 X100.066 Y104.479 E31.45739
G0 F6000 X100.066 Y103.890
G1 F1800 X96.930 Y100.754 E31.58297
G0 F6000 X96.930 Y100.165
G1 F1800 X100.066 Y103.302 E31.70858
G0 F6000 X100.066 Y102.714
G1 F1800 X96.930 Y99.577 E31.83418
G0 F6000 X96.930 Y98.989
G1 F1800 X100.066 Y102.126 E31.95978
G0 F6000 X100.067 Y101.538
G1 F1800 X96.930 Y98.400 E32.08542
G0 F6000 X96.930 Y97.813
G1 F1800 X100.067 Y100.950 E32.21104
G0 F6000 X100.067 Y100.361
G1 F1800 X96.930 Y97.225 E32.33664
G0 F6000 X96.930 Y96.636
G1 F1800 X100.067 Y99.773 E32.46226
G0 F6000 X100.067 Y99.185
G1 F1800 X96.930 Y96.048 E32.58788
G0 F6000 X96.930 Y95.460
G1 F1800 X100.067 Y98.596 E32.71349
G0 F6000 X100.068 Y98.009
G1 F1800 X96.930 Y94.871 E32.83915
G0 F6000 X96.931 Y94.284
G1 F1800 X100.068 Y97.420 E32.96475
G0 F6000 X100.068 Y96.832
G1 F1800 X96.931 Y93.695 E33.09037
G0 F6000 X96.931 Y93.107
G1 F1800 X100.068 Y96.244 E33.21599
G0 F6000 X100.068 Y95.655
G1 F1800 X96.931 Y92.519 E33.34159
G0 F6000 X96.931 Y91.930
G1 F1800 X100.068 Y95.067 E33.46721
G0 F6000 X100.069 Y94.480
G1 F1800 X96.931 Y91.342 E33.59288
G0 F6000 X97.367 Y91.190
G1 F1800 X100.069 Y93.891 E33.70106
G0 F6000 X100.069 Y93.303
G1 F1800 X97.956 Y91.190 E33.78567
G0 F6000 X98.543 Y91.189
G1 F1800 X100.069 Y92.715 E33.84678
G0 F6000 X100.069 Y92.126
G1 F1800 X99.132 Y91.189 E33.88430
G0 F6000 X99.720 Y91.189
G1 F1800 X100.188 Y91.363 E33.89824
G1 X100.664 Y91.251 E33.90320
G1 X101.252 Y91.251 E33.90816
G1 X101.840 Y91.251 E33.91316
G1 X102.429 Y91.251 E33.91818
G1 X103.017 Y91.251 E33.92322
G1 X103.606 Y91.251 E33.92831
G1 X104.194 Y91.251 E33.93343
G1 X104.783 Y91.252 E33.93860
G1 X105.371 Y91.252 E33.94377
G1 X105.959 Y91.251 E33.94897
G1 X106.548 Y91.252 E33.95422
G1 X107.136 Y91.252 E33.95947
G1 X107.724 Y91.252 E33.96479
G1 X108.313 Y91.252 E33.97016
G1 X108.802 Y91.447 E33.97554
G1 X108.997 Y91.936 E33.98088
G1 X108.997 Y92.525 E33.98617
G1 X108.997 Y93.113 E33.99149
G1 X108.998 Y93.702 E33.99678
G1 X108.998 Y94.290 E34.00203
G1 X109.064 Y94.651 E34.01242
;LAYER:1
M106 S114
G0 F6000 X109.212 Y94.962 Z0.350
;TYPE:WALL-INNER
G1 F2040 X108.788 Y94.962 E34.02843
G1 X108.788 Y91.462 E34.16057
G1 X100.212 Y91.462 E34.48435
G1 X100.212 Y108.838 E35.14038
G1 X108.788 Y108.838 E35.46417
G1 X108.788 Y105.338 E35.59631
G1 X109.212 Y105.338 E35.61232
G1 X109.212 Y108.962 E35.74914
G1 X90.788 Y108.962 E36.44474
G1 X90.788 Y108.538 E36.46074
G1 X96.788 Y108.538 E36.68727
G1 X96.788 Y91.038 E37.34798
G1 X109.212 Y91.038 E37.81705
G1 X109.212 Y94.962 E37.96520
G0 F6000 X109.628 Y95.378
G1 F2040 X108.372 Y95.378 E38.01262
G1 X108.372 Y91.878 E38.14476
G1 X100.628 Y91.878 E38.43714
G1 X100.628 Y108.422 E39.06175
G1 X108.372 Y108.422 E39.35413
G1 X108.372 Y104.922 E39.48627
G1 X109.628 Y104.922 E39.53369
G1 X109.628 Y109.378 E39.70192
G1 X90.372 Y109.378 E40.42893
G1 X90.372 Y108.122 E40.47635
G1 X96.372 Y108.122 E40.70288
G1 X96.372 Y90.622 E41.36359
G1 X109.628 Y90.622 E41.86407
G1 X109.628 Y95.378 E42.04363
G0 F6000 X110.044 Y95.794
G1 F2040 X107.956 Y95.794 E42.12246
G1 X107.956 Y92.294 E42.25461
G1 X101.044 Y92.294 E42.51557
G1 X101.044 Y108.006 E43.10877
G1 X107.956 Y108.006 E43.36973
G1 X107.956 Y104.506 E43.50187
G1 X110.044 Y104.506 E43.58071
G1 X110.044 Y109.794 E43.78035
G1 X89.956 Y109.794 E44.53877
G1 X89.956 Y107.706 E44.61761
G1 X95.956 Y107.706 E44.84414
G1 X95.956 Y90.206 E45.50485
G1 X110.044 Y90.206 E46.03674
G1 X110.044 Y95.794 E46.24771
G0 F6000 X110.460 Y96.210
G1 F2040 X107.540 Y96.210 E46.35795
G1 X107.540 Y92.710 E46.49010
G1 X101.460 Y92.710 E46.71965
G1 X101.460 Y107.590 E47.28144
G1 X107.540 Y107.590 E47.51099
G1 X107.540 Y104.090 E47.64313
G1 X110.460 Y104.090 E47.75337
G1 X110.460 Y110.210 E47.98443
G1 X89.540 Y110.210 E48.77426
G1 X89.540 Y107.290 E48.88451
G1 X95.540 Y107.290 E49.11104
G1 X95.540 Y89.790 E49.77175
G1 X110.460 Y89.790 E50.33505
G1 X110.460 Y96.210 E50.57744
G0 F6000 X110.876 Y96.626
G1 F2040 X107.124 Y96.626 E50.71909
G1 X107.124 Y93.126 E50.85124
G1 X101.876 Y93.126 E51.04937
G1 X101.876 Y107.174 E51.57975
G1 X107.124 Y107.174 E51.77789
G1 X107.124 Y103.674 E51.91003
G1 X110.876 Y103.674 E52.05169
G1 X110.876 Y110.626 E52.31416
G1 X89.124 Y110.626 E53.13540
G1 X89.124 Y106.874 E53.27706
G1 X95.124 Y106.874 E53.50359
G1 X95.124 Y89.374 E54.16430
G1 X110.876 Y89.374 E54.75901
G1 X110.876 Y96.626 E55.03281
G0 F6000 X111.292 Y97.042
;TYPE:WALL-OUTER
G1 F1740 X106.708 Y97.042 E55.20588
G1 X106.708 Y93.542 E55.33802
G1 X102.292 Y93.542 E55.50475
G1 X102.292 Y106.758 E56.00372
G1 X106.708 Y106.758 E56.17044
G1 X106.708 Y103.258 E56.30258
G1 X111.292 Y103.258 E56.47565
G1 X111.292 Y111.042 E56.76954
G1 X88.708 Y111.042 E57.62219
G1 X88.708 Y106.458 E57.79526
G1 X94.708 Y106.458 E58.02179
G1 X94.708 Y88.958 E58.68250
G1 X111.292 Y88.958 E59.30863
G1 X111.292 Y97.042 E59.61384
G0 F6000 X110.984 Y96.824
G0 X107.057 Y93.193
G0 X101.943 Y93.193
G0 X101.943 Y107.107
G0 X107.057 Y107.107
G0 X109.064 Y105.928
;TYPE:FILL
G1 F2520 X108.933 Y106.059 E59.62083
G0 F6000 X109.064 Y107.106
G1 F2520 X108.933 Y107.237 E59.62782
G0 F6000 X109.064 Y108.284
G1 F2520 X108.933 Y108.415 E59.63482
G0 F6000 X100.065 Y108.491
;TYPE:SKIN
G1 F2220 X99.741 Y108.815 E59.65212
G0 F6000 X99.153 Y108.815
G1 F2220 X100.065 Y107.903 E59.70081
G0 F6000 X100.065 Y107.314
G1 F2220 X98.565 Y108.815 E59.78093
G0 F6000 X97.976 Y108.815
G1 F2220 X100.065 Y106.726 E59.89247
G0 F6000 X100.065 Y106.138
G1 F2220 X97.388 Y108.815 E60.03540
G0 F6000 X96.933 Y108.681
G1 F2220 X100.065 Y105.549 E60.20263
G0 F6000 X100.065 Y104.961
G1 F2220 X96.933 Y108.093 E60.36986
G0 F6000 X96.933 Y107.504
G1 F2220 X100.065 Y104.373 E60.53706
G0 F6000 X100.065 Y103.784
G1 F2220 X96.933 Y106.916 E60.70429
G0 F6000 X96.933 Y106.328
G1 F2220 X100.065 Y103.196 E60.87152
G0 F6000 X100.065 Y102.608
G1 F2220 X96.933 Y105.740 E61.03875
G0 F6000 X96.933 Y105.151
G1 F2220 X100.065 Y102.019 E61.20597
G0 F6000 X100.065 Y101.431
G1 F2220 X96.933 Y104.563 E61.37320
G0 F6000 X96.933 Y103.975
G1 F2220 X100.065 Y100.843 E61.54043
G0 F6000 X100.065 Y100.255
G1 F2220 X96.933 Y103.386 E61.70763
G0 F6000 X96.933 Y102.798
G1 F2220 X100.065 Y99.666 E61.87486
G0 F6000 X100.065 Y99.078
G1 F2220 X96.933 Y102.210 E62.04209
G0 F6000 X96.933 Y101.621
G1 F2220 X100.065 Y98.490 E62.20929
G0 F6000 X100.065 Y97.901
G1 F2220 X96.933 Y101.033 E62.37652
G0 F6000 X96.933 Y100.445
G1 F2220 X100.065 Y97.313 E62.54375
G0 F6000 X100.065 Y96.725
G1 F2220 X96.933 Y99.856 E62.71095
G0 F6000 X96.933 Y99.268
G1 F2220 X100.065 Y96.136 E62.87818
G0 F6000 X100.065 Y95.548
G1 F2220 X96.933 Y98.680 E63.04540
G0 F6000 X96.933 Y98.091
G1 F2220 X100.065 Y94.960 E63.21261
G0 F6000 X100.065 Y94.371
G1 F2220 X96.933 Y97.503 E63.37983
G0 F6000 X96.933 Y96.915
G1 F2220 X100.065 Y93.783 E63.54706
G0 F6000 X100.065 Y93.195
G1 F2220 X96.933 Y96.327 E63.71429
G0 F6000 X96.933 Y95.738
G1 F2220 X100.065 Y92.606 E63.88152
G0 F6000 X100.065 Y92.018
G1 F2220 X96.933 Y95.150 E64.04875
G0 F6000 X96.933 Y94.562
G1 F2220 X100.065 Y91.430 E64.21598
G0 F6000 X100.179 Y91.316
G1 F2220 X100.539 Y91.250 E64.22298
G1 X101.127 Y91.250 E64.22997
G1 X101.716 Y91.250 E64.23703
G1 X102.304 Y91.250 E64.24402
G1 X102.892 Y91.250 E64.25101
G1 X103.481 Y91.250 E64.25807
G1 X104.069 Y91.250 E64.26506
G1 X104.657 Y91.250 E64.27205
G1 X105.246 Y91.250 E64.27911
G1 X105.834 Y91.250 E64.28610
G1 X106.422 Y91.250 E64.29309
G1 X107.011 Y91.250 E64.30014
G1 X107.599 Y91.250 E64.30714
G1 X108.187 Y91.250 E64.31413
G1 X108.740 Y91.285 E64.32112
G1 X109.065 Y91.548 E64.32817
G1 X108.999 Y92.203 E64.33516
G1 X108.999 Y92.791 E64.34216
G1 X108.999 Y93.380 E64.34921
G1 X108.999 Y93.968 E64.35620
G1 X108.933 Y94.328 E64.37002
G0 F6000 X107.057 Y93.193
G0 X99.723 Y91.184
G1 F2220 X96.933 Y93.973 E64.51896
G0 F6000 X96.933 Y93.385
G1 F2220 X99.134 Y91.184 E64.63648
G0 F6000 X98.546 Y91.184
G1 F2220 X96.933 Y92.797 E64.72260
G0 F6000 X96.933 Y92.208
G1 F2220 X97.958 Y91.184 E64.77731
G0 F6000 X97.370 Y91.184
G1 F2220 X96.933 Y91.620 E64.80061
G0 F6000 X96.932 Y108.683
G1 F2220 X96.572 Y108.749 E64.80762
G1 X95.983 Y108.749 E64.81468
G1 X95.395 Y108.749 E64.82167
G1 X94.807 Y108.749 E64.82866
G1 X94.218 Y108.749 E64.83571
G1 X93.630 Y108.749 E64.84271
G1 X93.042 Y108.749 E64.84970
G1 X92.453 Y108.749 E64.85675
G1 X91.865 Y108.749 E64.86374
G1 X91.277 Y108.749 E64.87073
G1 X90.933 Y108.798 E64.88385
;LAYER:2
M106 S229
G0 F6000 X90.788 Y108.962 Z0.550
;TYPE:WALL-INNER
G1 F2400 X90.788 Y108.538 E64.89986
G1 X96.788 Y108.538 E65.12639
G1 X96.788 Y91.038 E65.78710
G1 X109.212 Y91.038 E66.25617
G1 X109.212 Y94.962 E66.40432
G1 X108.788 Y94.962 E66.42032
G1 X108.788 Y91.462 E66.55247
G1 X100.212 Y91.462 E66.87625
G1 X100.212 Y108.838 E67.53228
G1 X108.788 Y108.838 E67.85607
G1 X108.788 Y105.338 E67.98821
G1 X109.212 Y105.338 E68.00422
G1 X109.212 Y108.962 E68.14104
G1 X90.788 Y108.962 E68.83664
G0 F6000 X90.372 Y109.378
G1 F2400 X90.372 Y108.122 E68.88406
G1 X96.372 Y108.122 E69.11058
G1 X96.372 Y90.622 E69.77129
G1 X109.628 Y90.622 E70.27177
G1 X109.628 Y95.378 E70.45133
G1 X108.372 Y95.378 E70.49875
G1 X108.372 Y91.878 E70.63090
G1 X100.628 Y91.878 E70.92327
G1 X100.628 Y108.422 E71.54789
G1 X108.372 Y108.422 E71.84026
G1 X108.372 Y104.922 E71.97240
G1 X109.628 Y104.922 E72.01982
G1 X109.628 Y109.378 E72.18806
G1 X90.372 Y109.378 E72.91507
G0 F6000 X89.956 Y109.794
G1 F2400 X89.956 Y107.706 E72.99390
G1 X95.956 Y107.706 E73.22043
G1 X95.956 Y90.206 E73.88114
G1 X110.044 Y90.206 E74.41303
G1 X110.044 Y95.794 E74.62400
G1 X107.956 Y95.794 E74.70283
G1 X107.956 Y92.294 E74.83498
G1 X101.044 Y92.294 E75.09594
G1 X101.044 Y108.006 E75.68914
G1 X107.956 Y108.006 E75.95010
G1 X107.956 Y104.506 E76.08225
G1 X110.044 Y104.506 E76.16108
G1 X110.044 Y109.794 E76.36072
G1 X89.956 Y109.794 E77.11914
G0 F6000 X89.540 Y110.210
G1 F2400 X89.540 Y107.290 E77.22939
G1 X95.540 Y107.290 E77.45592
G1 X95.540 Y89.790 E78.11663
G1 X110.460 Y89.790 E78.67993
G1 X110.460 Y96.210 E78.92232
G1 X107.540 Y96.210 E79.03256
